;FLAVOR:Marlin
;TIME:10262
;Filament used: 7.21091m
;Layer height: 0.2
;MINX:41
;MINY:63.75
;MINZ:0.2
;MAXX:179
;MAXY:156.25
;MAXZ:11
;Generated with Cura_SteamEngine 4.4.1
M140 S75
M105
M190 S75
M104 S215
M105
M109 S215
M82 ;absolute extrusion mode
M201 X500.00 Y500.00 Z100.00 E5000.00 ;Setup machine max acceleration
M203 X500.00 Y500.00 Z10.00 E50.00 ;Setup machine max feedrate
M204 P500.00 R1000.00 T500.00 ;Setup Print/Retract/Travel acceleration
M205 X8.00 Y8.00 Z0.40 E5.00 ;Setup Jerk
M220 S100 ;Reset Feedrate
M221 S100 ;Reset Flowrate

G28 ;Home

G92 E0 ;Reset Extruder
G1 Z2.0 F3000 ;Move Z Axis up
G1 X10.1 Y20 Z0.28 F5000.0 ;Move to start position
G1 X10.1 Y200.0 Z0.28 F1500.0 E15 ;Draw the first line
G1 X10.4 Y200.0 Z0.28 F5000.0 ;Move to side a little
G1 X10.4 Y20 Z0.28 F1500.0 E30 ;Draw the second line
G92 E0 ;Reset Extruder
G1 Z2.0 F3000 ;Move Z Axis up

G92 E0
G92 E0
G1 F2700 E-5
;LAYER_COUNT:55
;LAYER:0
M107
G0 F6000 X45.626 Y65.801 Z0.2
;TYPE:SKIRT
G1 F2700 E0
G1 F1200 X46.412 Y65.289 E0.0312
G1 X47.239 Y64.847 E0.06239
G1 X48.101 Y64.477 E0.09359
G1 X48.991 Y64.181 E0.12478
G1 X49.903 Y63.963 E0.15597
G1 X50.83 Y63.822 E0.18716
G1 X51.701 Y63.763 E0.21619
G1 X52.022 Y63.754 E0.22687
G1 X52.33 Y63.75 E0.23712
G1 X167.293 Y63.75 E4.0608
G1 X167.451 Y63.751 E4.06606
G1 X168.149 Y63.761 E4.08928
G1 X169.085 Y63.815 E4.12046
G1 X170.013 Y63.947 E4.15164
G1 X170.927 Y64.159 E4.18284
G1 X171.819 Y64.448 E4.21403
G1 X172.684 Y64.811 E4.24523
G1 X173.514 Y65.247 E4.27641
G1 X174.305 Y65.752 E4.30763
G1 X175.049 Y66.323 E4.33882
G1 X175.742 Y66.955 E4.37002
G1 X176.379 Y67.643 E4.4012
G1 X176.954 Y68.384 E4.4324
G1 X177.465 Y69.17 E4.46358
G1 X177.907 Y69.998 E4.4948
G1 X178.276 Y70.86 E4.52598
G1 X178.571 Y71.75 E4.55717
G1 X178.789 Y72.662 E4.58835
G1 X178.929 Y73.59 E4.61957
G1 X178.987 Y74.451 E4.64827
G1 X178.996 Y74.771 E4.65892
G1 X179 Y75.08 E4.6692
G1 X179 Y144.514 E6.97858
G1 X178.999 Y144.65 E6.9831
G1 X178.99 Y145.377 E7.00729
G1 X178.939 Y146.314 E7.0385
G1 X178.807 Y147.242 E7.06967
G1 X178.598 Y148.156 E7.10086
G1 X178.311 Y149.049 E7.13206
G1 X177.949 Y149.915 E7.16327
G1 X177.515 Y150.746 E7.19446
G1 X177.011 Y151.537 E7.22565
G1 X176.442 Y152.282 E7.25683
G1 X175.811 Y152.977 E7.28805
G1 X175.124 Y153.615 E7.31924
G1 X174.385 Y154.192 E7.35042
G1 X173.599 Y154.704 E7.38162
G1 X172.773 Y155.147 E7.41279
G1 X171.911 Y155.519 E7.44402
G1 X171.022 Y155.815 E7.47518
G1 X170.11 Y156.035 E7.50639
G1 X169.183 Y156.176 E7.53757
G1 X168.299 Y156.237 E7.56705
G1 X167.978 Y156.246 E7.57773
G1 X167.67 Y156.25 E7.58797
G1 X52.707 Y156.25 E11.41166
G1 X52.565 Y156.249 E11.41638
G1 X51.867 Y156.24 E11.4396
G1 X50.931 Y156.188 E11.47078
G1 X50.002 Y156.056 E11.50199
G1 X49.088 Y155.846 E11.53318
G1 X48.195 Y155.559 E11.56437
G1 X47.33 Y155.196 E11.59558
G1 X46.499 Y154.762 E11.62676
G1 X45.708 Y154.258 E11.65795
G1 X44.963 Y153.688 E11.68915
G1 X44.269 Y153.057 E11.72035
G1 X43.632 Y152.37 E11.75151
G1 X43.055 Y151.63 E11.78272
G1 X42.543 Y150.844 E11.81392
G1 X42.1 Y150.017 E11.84512
G1 X41.729 Y149.156 E11.87631
G1 X41.433 Y148.266 E11.9075
G1 X41.214 Y147.354 E11.9387
G1 X41.073 Y146.427 E11.96988
G1 X41.013 Y145.538 E11.99952
G1 X41.004 Y145.205 E12.0106
G1 X41 Y144.908 E12.02048
G1 X41 Y75.424 E14.33153
G1 X41.001 Y75.275 E14.33648
G1 X41.01 Y74.61 E14.3586
G1 X41.063 Y73.674 E14.38978
G1 X41.195 Y72.745 E14.42099
G1 X41.406 Y71.831 E14.45219
G1 X41.694 Y70.939 E14.48337
G1 X42.057 Y70.074 E14.51457
G1 X42.492 Y69.243 E14.54576
G1 X42.996 Y68.453 E14.57693
G1 X43.566 Y67.708 E14.60813
G1 X44.198 Y67.014 E14.63935
G1 X44.886 Y66.377 E14.67054
G1 X45.626 Y65.801 E14.70173
G0 F6000 X46.01 Y66.02
G1 F1200 X46.791 Y65.532 E14.73236
G1 X47.611 Y65.114 E14.76297
G1 X48.465 Y64.769 E14.7936
G1 X49.345 Y64.499 E14.82422
G1 X50.245 Y64.307 E14.85483
G1 X51.159 Y64.193 E14.88546
G1 X51.712 Y64.163 E14.90388
G1 X52.033 Y64.154 E14.91456
G1 X52.33 Y64.15 E14.92444
G1 X167.293 Y64.15 E18.74813
G1 X167.445 Y64.151 E18.75318
G1 X168.143 Y64.161 E18.7764
G1 X169.062 Y64.214 E18.80702
G1 X169.973 Y64.347 E18.83764
G1 X170.869 Y64.558 E18.86825
G1 X171.743 Y64.846 E18.89886
G1 X172.59 Y65.209 E18.92951
G1 X173.401 Y65.644 E18.96012
G1 X174.171 Y66.148 E18.99073
G1 X174.895 Y66.717 E19.02136
G1 X175.567 Y67.347 E19.05199
G1 X176.182 Y68.032 E19.08261
G1 X176.735 Y68.768 E19.11323
G1 X177.222 Y69.549 E19.14384
G1 X177.639 Y70.37 E19.17447
G1 X177.984 Y71.224 E19.2051
G1 X178.253 Y72.104 E19.23571
G1 X178.445 Y73.005 E19.26635
G1 X178.558 Y73.918 E19.29695
G1 X178.587 Y74.462 E19.31507
G1 X178.596 Y74.782 E19.32571
G1 X178.6 Y75.08 E19.33563
G1 X178.6 Y144.514 E21.64501
G1 X178.599 Y144.645 E21.64937
G1 X178.59 Y145.372 E21.67355
G1 X178.539 Y146.291 E21.70416
G1 X178.408 Y147.203 E21.73481
G1 X178.198 Y148.099 E21.76542
G1 X177.912 Y148.974 E21.79603
G1 X177.551 Y149.821 E21.82666
G1 X177.117 Y150.633 E21.85728
G1 X176.615 Y151.405 E21.88791
G1 X176.047 Y152.13 E21.91854
G1 X175.419 Y152.803 E21.94916
G1 X174.735 Y153.419 E21.97977
G1 X174 Y153.973 E22.01039
G1 X173.22 Y154.462 E22.04101
G1 X172.4 Y154.881 E22.07163
G1 X171.547 Y155.227 E22.10225
G1 X170.667 Y155.498 E22.13287
G1 X169.767 Y155.691 E22.16349
G1 X168.853 Y155.806 E22.19413
G1 X168.288 Y155.837 E22.21295
G1 X167.967 Y155.846 E22.22363
G1 X167.67 Y155.85 E22.23351
G1 X52.707 Y155.85 E26.05719
G1 X52.57 Y155.849 E26.06175
G1 X51.872 Y155.84 E26.08497
G1 X50.953 Y155.788 E26.11558
G1 X50.042 Y155.657 E26.14619
G1 X49.146 Y155.447 E26.1768
G1 X48.271 Y155.16 E26.20743
G1 X47.424 Y154.798 E26.23807
G1 X46.612 Y154.364 E26.26869
G1 X45.841 Y153.862 E26.29929
G1 X45.116 Y153.294 E26.32992
G1 X44.443 Y152.665 E26.36056
G1 X43.828 Y151.981 E26.39116
G1 X43.274 Y151.246 E26.42177
G1 X42.786 Y150.465 E26.4524
G1 X42.367 Y149.645 E26.48303
G1 X42.021 Y148.792 E26.51364
G1 X41.751 Y147.912 E26.54426
G1 X41.558 Y147.011 E26.5749
G1 X41.444 Y146.098 E26.60551
G1 X41.413 Y145.527 E26.62453
G1 X41.404 Y145.194 E26.63561
G1 X41.4 Y144.908 E26.64512
G1 X41.4 Y75.424 E28.95617
G1 X41.401 Y75.281 E28.96092
G1 X41.41 Y74.616 E28.98304
G1 X41.462 Y73.696 E29.01369
G1 X41.594 Y72.785 E29.04431
G1 X41.805 Y71.889 E29.07492
G1 X42.092 Y71.014 E29.10555
G1 X42.455 Y70.168 E29.13617
G1 X42.889 Y69.356 E29.16679
G1 X43.392 Y68.585 E29.19741
G1 X43.961 Y67.861 E29.22804
G1 X44.589 Y67.189 E29.25863
G1 X45.274 Y66.573 E29.28927
G1 X46.01 Y66.02 E29.31989
G0 F6000 X46.394 Y66.244
G1 F1200 X47.169 Y65.781 E29.34992
G1 X47.982 Y65.388 E29.37995
G1 X48.827 Y65.068 E29.41
G1 X49.696 Y64.825 E29.44002
G1 X50.584 Y64.659 E29.47006
G1 X51.723 Y64.563 E29.50808
G1 X52.044 Y64.554 E29.51876
G1 X52.33 Y64.55 E29.52827
G1 X167.293 Y64.55 E33.35196
G1 X167.439 Y64.551 E33.35681
G1 X168.137 Y64.561 E33.38003
G1 X169.039 Y64.614 E33.41008
G1 X169.932 Y64.746 E33.44011
G1 X170.81 Y64.957 E33.47014
G1 X171.666 Y65.245 E33.50018
G1 X172.493 Y65.607 E33.53021
G1 X173.285 Y66.042 E33.56026
G1 X174.036 Y66.544 E33.59031
G1 X174.739 Y67.111 E33.62035
G1 X175.389 Y67.738 E33.65038
G1 X175.981 Y68.42 E33.68042
G1 X176.511 Y69.151 E33.71045
G1 X176.973 Y69.927 E33.74049
G1 X177.366 Y70.74 E33.77052
G1 X177.684 Y71.585 E33.80055
G1 X177.927 Y72.455 E33.8306
G1 X178.092 Y73.343 E33.86064
G1 X178.187 Y74.473 E33.89835
G1 X178.196 Y74.793 E33.909
G1 X178.2 Y75.08 E33.91855
G1 X178.2 Y144.514 E36.22793
G1 X178.199 Y144.64 E36.23212
G1 X178.19 Y145.367 E36.2563
G1 X178.139 Y146.269 E36.28635
G1 X178.008 Y147.163 E36.31641
G1 X177.799 Y148.041 E36.34642
G1 X177.513 Y148.898 E36.37647
G1 X177.152 Y149.726 E36.40652
G1 X176.72 Y150.518 E36.43652
G1 X176.219 Y151.27 E36.46658
G1 X175.653 Y151.974 E36.49662
G1 X175.028 Y152.625 E36.52664
G1 X174.347 Y153.219 E36.55669
G1 X173.616 Y153.75 E36.58674
G1 X172.842 Y154.214 E36.61676
G1 X172.029 Y154.608 E36.64681
G1 X171.185 Y154.928 E36.67683
G1 X170.315 Y155.173 E36.70689
G1 X169.428 Y155.339 E36.7369
G1 X168.277 Y155.437 E36.77532
G1 X167.956 Y155.446 E36.786
G1 X167.67 Y155.45 E36.79552
G1 X52.707 Y155.45 E40.6192
G1 X52.575 Y155.449 E40.62359
G1 X51.877 Y155.44 E40.64681
G1 X50.976 Y155.389 E40.67683
G1 X50.082 Y155.257 E40.70688
G1 X49.204 Y155.048 E40.7369
G1 X48.347 Y154.761 E40.76696
G1 X47.52 Y154.4 E40.79697
G1 X46.727 Y153.967 E40.82702
G1 X45.976 Y153.466 E40.85705
G1 X45.272 Y152.9 E40.8871
G1 X44.621 Y152.274 E40.91713
G1 X44.028 Y151.593 E40.94717
G1 X43.498 Y150.862 E40.9772
G1 X43.034 Y150.087 E41.00724
G1 X42.64 Y149.274 E41.03729
G1 X42.32 Y148.43 E41.06731
G1 X42.076 Y147.56 E41.09737
G1 X41.91 Y146.672 E41.12741
G1 X41.813 Y145.517 E41.16596
G1 X41.804 Y145.184 E41.17704
G1 X41.8 Y144.908 E41.18622
G1 X41.8 Y75.424 E43.49727
G1 X41.801 Y75.286 E43.50186
G1 X41.81 Y74.621 E43.52398
G1 X41.862 Y73.719 E43.55403
G1 X41.994 Y72.826 E43.58406
G1 X42.204 Y71.948 E43.61408
G1 X42.491 Y71.091 E43.64414
G1 X42.853 Y70.264 E43.67417
G1 X43.286 Y69.472 E43.70419
G1 X43.788 Y68.721 E43.73423
G1 X44.355 Y68.017 E43.7643
G1 X44.981 Y67.367 E43.79431
G1 X45.662 Y66.774 E43.82435
G1 X46.394 Y66.244 E43.85441
G1 F2700 E38.85441
;MESH:W8BH Display Bezel Square.stl
G0 F6000 X81.662 Y133.189
G0 X79.827 Y133.189
G0 X79.997 Y137.253
;TYPE:WALL-INNER
G1 F2700 E43.85441
G1 F1200 X148.003 Y137.253 E46.11629
G1 X148.003 Y83.247 E47.91254
G1 X79.997 Y83.247 E50.17443
G1 X79.997 Y137.253 E51.97068
G0 F6000 X80.397 Y136.853
G1 F1200 X147.603 Y136.853 E54.20596
G1 X147.603 Y83.647 E55.9756
G1 X80.397 Y83.647 E58.21088
G1 X80.397 Y136.853 E59.98052
G0 F6000 X80.797 Y136.453
;TYPE:WALL-OUTER
G1 F1200 X147.203 Y136.453 E62.18919
G1 X147.203 Y84.047 E63.93222
G1 X80.797 Y84.047 E66.14089
G1 X80.797 Y136.453 E67.88392
G1 F2700 E62.88392
G0 F6000 X80.497 Y136.453
G0 X80.554 Y136.637
G0 X81.966 Y137.423
G0 X81.966 Y135.588
G0 X79.801 Y145.915
G0 X79.801 Y144.04
G0 X53 Y144.25
;TYPE:WALL-INNER
G1 F2700 E67.88392
G1 F1200 X53 Y75.75 E70.16224
G1 X167 Y75.75 E73.9539
G1 X167 Y144.25 E76.23222
G1 X53 Y144.25 E80.02387
G0 F6000 X52.6 Y144.65
G1 F1200 X52.6 Y75.35 E82.3288
G1 X167.4 Y75.35 E86.14706
G1 X167.4 Y144.65 E88.45199
G1 X52.6 Y144.65 E92.27025
G0 F6000 X52.2 Y145.05
;TYPE:WALL-OUTER
G1 F1200 X52.2 Y74.95 E94.60179
G1 X167.8 Y74.95 E98.44666
G1 X167.8 Y145.05 E100.7782
G1 X52.2 Y145.05 E104.62307
G0 F6000 X52.47 Y144.78
G0 X53.11 Y143.86
G0 X53.39 Y143.86
;TYPE:SKIN
G1 F1200 X53.39 Y76.14 E106.87544
G1 X166.61 Y76.14 E110.64116
G1 X166.61 Y143.86 E112.89353
G1 X53.39 Y143.86 E116.65924
G1 F2700 E111.65924
G0 F6000 X53.11 Y143.86
G0 X53.21 Y137.393
G0 X51.335 Y137.393
G0 X81.662 Y135.326
G0 X79.827 Y135.326
G0 X79.887 Y137.393
G0 X79.607 Y137.643
G1 F2700 E116.65924
G1 F1200 X148.393 Y137.643 E118.94708
G1 X148.393 Y82.857 E120.76927
G1 X79.607 Y82.857 E123.0571
G1 X79.607 Y137.643 E124.87929
G1 F2700 E119.87929
G0 F6000 X79.887 Y137.393
G0 X81.966 Y137.423
G0 X81.966 Y135.588
G0 X79.801 Y145.915
G0 X79.801 Y144.04
G0 X53.754 Y144.14
G0 X53.754 Y143.698
G1 F2700 E124.87929
G1 F1200 X53.549 Y143.493 E124.88893
G0 F6000 X53.549 Y142.928
G1 F1200 X54.32 Y143.698 E124.92517
G0 F6000 X54.886 Y143.698
G1 F1200 X53.549 Y142.362 E124.98804
G0 F6000 X53.549 Y141.796
G1 F1200 X55.452 Y143.698 E125.07752
G0 F6000 X56.017 Y143.698
G1 F1200 X53.549 Y141.231 E125.19359
G0 F6000 X53.549 Y140.665
G1 F1200 X56.583 Y143.698 E125.33628
G0 F6000 X57.149 Y143.698
G1 F1200 X53.549 Y140.099 E125.50558
G0 F6000 X53.549 Y139.534
G1 F1200 X57.714 Y143.698 E125.70147
G0 F6000 X58.28 Y143.698
G1 F1200 X53.549 Y138.968 E125.92398
G0 F6000 X53.549 Y138.402
G1 F1200 X58.846 Y143.698 E126.17311
G0 F6000 X59.411 Y143.698
G1 F1200 X53.549 Y137.837 E126.44882
G0 F6000 X53.549 Y137.271
G1 F1200 X59.977 Y143.698 E126.75115
G0 F6000 X60.543 Y143.698
G1 F1200 X53.549 Y136.705 E127.0801
G0 F6000 X53.549 Y136.139
G1 F1200 X61.108 Y143.698 E127.43565
G0 F6000 X61.674 Y143.698
G1 F1200 X53.549 Y135.574 E127.8178
G0 F6000 X53.549 Y135.008
G1 F1200 X62.24 Y143.698 E128.22658
G0 F6000 X62.805 Y143.698
G1 F1200 X53.549 Y134.442 E128.66195
G0 F6000 X53.549 Y133.877
G1 F1200 X63.371 Y143.698 E129.12392
G0 F6000 X63.937 Y143.698
G1 F1200 X53.549 Y133.311 E129.61252
G0 F6000 X53.549 Y132.745
G1 F1200 X64.502 Y143.698 E130.12772
G0 F6000 X65.068 Y143.698
G1 F1200 X53.549 Y132.18 E130.66951
G0 F6000 X53.549 Y131.614
G1 F1200 X65.634 Y143.698 E131.23793
G0 F6000 X66.2 Y143.698
G1 F1200 X53.549 Y131.048 E131.83297
G0 F6000 X53.549 Y130.483
G1 F1200 X66.765 Y143.698 E132.45459
G0 F6000 X67.331 Y143.698
G1 F1200 X53.549 Y129.917 E133.10283
G0 F6000 X53.549 Y129.351
G1 F1200 X67.897 Y143.698 E133.77769
G0 F6000 X68.462 Y143.698
G1 F1200 X53.549 Y128.786 E134.47913
G0 F6000 X53.549 Y128.22
G1 F1200 X69.028 Y143.698 E135.20719
G0 F6000 X69.594 Y143.698
G1 F1200 X53.549 Y127.654 E135.96187
G0 F6000 X53.549 Y127.089
G1 F1200 X70.159 Y143.698 E136.74313
G0 F6000 X70.725 Y143.698
G1 F1200 X53.549 Y126.523 E137.55101
G0 F6000 X53.549 Y125.957
G1 F1200 X71.291 Y143.698 E138.38552
G0 F6000 X71.856 Y143.698
G1 F1200 X53.549 Y125.391 E139.24663
G0 F6000 X53.549 Y124.826
G1 F1200 X72.422 Y143.698 E140.13433
G0 F6000 X72.988 Y143.698
G1 F1200 X53.549 Y124.26 E141.04866
G0 F6000 X53.549 Y123.694
G1 F1200 X73.553 Y143.698 E141.98958
G0 F6000 X74.119 Y143.698
G1 F1200 X53.549 Y123.129 E142.95711
G0 F6000 X53.549 Y122.563
G1 F1200 X74.685 Y143.698 E143.95126
G0 F6000 X75.251 Y143.698
G1 F1200 X53.549 Y121.997 E144.97203
G0 F6000 X53.549 Y121.432
G1 F1200 X75.816 Y143.698 E146.01938
G0 F6000 X76.382 Y143.698
G1 F1200 X53.549 Y120.866 E147.09335
G0 F6000 X53.549 Y120.3
G1 F1200 X76.948 Y143.698 E148.19394
G0 F6000 X77.513 Y143.698
G1 F1200 X53.549 Y119.735 E149.32111
G0 F6000 X53.549 Y119.169
G1 F1200 X78.079 Y143.698 E150.47491
G0 F6000 X78.645 Y143.698
G1 F1200 X53.549 Y118.603 E151.65532
G0 F6000 X53.549 Y118.038
G1 F1200 X79.21 Y143.698 E152.86231
G0 F6000 X79.776 Y143.698
G1 F1200 X53.549 Y117.472 E154.09593
G0 F6000 X53.549 Y116.906
G1 F1200 X80.342 Y143.698 E155.35616
G0 F6000 X80.907 Y143.698
G1 F1200 X53.549 Y116.34 E156.643
G0 F6000 X53.549 Y115.775
G1 F1200 X81.473 Y143.698 E157.95644
G0 F6000 X82.039 Y143.698
G1 F1200 X53.549 Y115.209 E159.29649
G0 F6000 X53.549 Y114.643
G1 F1200 X82.604 Y143.698 E160.66315
G0 F6000 X83.17 Y143.698
G1 F1200 X53.549 Y114.078 E162.05641
G0 F6000 X53.549 Y113.512
G1 F1200 X83.736 Y143.698 E163.47629
G0 F6000 X84.301 Y143.698
G1 F1200 X53.549 Y112.946 E164.92277
G0 F6000 X53.549 Y112.381
G1 F1200 X84.867 Y143.698 E166.39585
G0 F6000 X85.433 Y143.698
G1 F1200 X79.536 Y137.802 E166.6732
G0 F6000 X79.446 Y137.712
G1 F1200 X53.549 Y111.815 E167.89132
G0 F6000 X53.549 Y111.249
G1 F1200 X79.446 Y137.146 E169.10943
G0 F6000 X79.446 Y136.581
G1 F1200 X53.549 Y110.684 E170.32755
G0 F6000 X53.549 Y110.118
G1 F1200 X79.446 Y136.015 E171.54566
G0 F6000 X79.446 Y135.449
G1 F1200 X53.549 Y109.552 E172.76378
G0 F6000 X53.549 Y108.987
G1 F1200 X79.446 Y134.884 E173.9819
G0 F6000 X79.446 Y134.318
G1 F1200 X53.549 Y108.421 E175.20001
G0 F6000 X53.549 Y107.855
G1 F1200 X79.446 Y133.752 E176.41813
G0 F6000 X79.446 Y133.187
G1 F1200 X53.549 Y107.29 E177.63624
G0 F6000 X53.549 Y106.724
G1 F1200 X79.446 Y132.621 E178.85436
G0 F6000 X79.446 Y132.055
G1 F1200 X53.549 Y106.158 E180.07247
G0 F6000 X53.549 Y105.592
G1 F1200 X79.446 Y131.49 E181.29061
G0 F6000 X79.446 Y130.924
G1 F1200 X53.549 Y105.027 E182.50873
G0 F6000 X53.549 Y104.461
G1 F1200 X79.446 Y130.358 E183.72684
G0 F6000 X79.446 Y129.792
G1 F1200 X53.549 Y103.895 E184.94496
G0 F6000 X53.549 Y103.33
G1 F1200 X79.446 Y129.227 E186.16307
G0 F6000 X79.446 Y128.661
G1 F1200 X53.549 Y102.764 E187.38119
G0 F6000 X53.549 Y102.198
G1 F1200 X79.446 Y128.095 E188.59931
G0 F6000 X79.446 Y127.53
G1 F1200 X53.549 Y101.633 E189.81742
G0 F6000 X53.549 Y101.067
G1 F1200 X79.446 Y126.964 E191.03554
G0 F6000 X79.446 Y126.398
G1 F1200 X53.549 Y100.501 E192.25365
G0 F6000 X53.549 Y99.936
G1 F1200 X79.446 Y125.833 E193.47177
G0 F6000 X79.446 Y125.267
G1 F1200 X53.549 Y99.37 E194.68988
G0 F6000 X53.549 Y98.804
G1 F1200 X79.446 Y124.701 E195.908
G0 F6000 X79.446 Y124.136
