;FLAVOR:Marlin
;TIME:11928
;Filament used: 8.07079m
;Layer height: 0.2
;MINX:41.25
;MINY:41.252
;MINZ:0.2
;MAXX:179.25
;MAXY:179.252
;MAXZ:11
;Generated with Cura_SteamEngine 4.4.1
M140 S75
M105
M190 S75
M104 S215
M105
M109 S215
M82 ;absolute extrusion mode
M201 X500.00 Y500.00 Z100.00 E5000.00 ;Setup machine max acceleration
M203 X500.00 Y500.00 Z10.00 E50.00 ;Setup machine max feedrate
M204 P500.00 R1000.00 T500.00 ;Setup Print/Retract/Travel acceleration
M205 X8.00 Y8.00 Z0.40 E5.00 ;Setup Jerk
M220 S100 ;Reset Feedrate
M221 S100 ;Reset Flowrate

G28 ;Home

G92 E0 ;Reset Extruder
G1 Z2.0 F3000 ;Move Z Axis up
G1 X10.1 Y20 Z0.28 F5000.0 ;Move to start position
G1 X10.1 Y200.0 Z0.28 F1500.0 E15 ;Draw the first line
G1 X10.4 Y200.0 Z0.28 F5000.0 ;Move to side a little
G1 X10.4 Y20 Z0.28 F1500.0 E30 ;Draw the second line
G92 E0 ;Reset Extruder
G1 Z2.0 F3000 ;Move Z Axis up

G92 E0
G92 E0
G1 F2700 E-5
;LAYER_COUNT:55
;LAYER:0
M107
G0 F6000 X44.448 Y44.516 Z0.2
;TYPE:SKIRT
G1 F2700 E0
G1 F1200 X45.136 Y43.879 E0.03119
G1 X45.876 Y43.303 E0.06237
G1 X46.662 Y42.791 E0.09357
G1 X47.489 Y42.349 E0.12476
G1 X48.351 Y41.979 E0.15596
G1 X49.241 Y41.683 E0.18716
G1 X50.153 Y41.465 E0.21835
G1 X51.08 Y41.324 E0.24953
G1 X51.951 Y41.265 E0.27857
G1 X52.272 Y41.256 E0.28925
G1 X52.58 Y41.252 E0.29949
G1 X167.535 Y41.252 E4.12291
G1 X167.693 Y41.253 E4.12817
G1 X168.391 Y41.263 E4.15139
G1 X169.327 Y41.317 E4.18257
G1 X170.255 Y41.449 E4.21375
G1 X171.169 Y41.661 E4.24495
G1 X172.061 Y41.95 E4.27614
G1 X172.926 Y42.313 E4.30734
G1 X173.756 Y42.749 E4.33852
G1 X174.547 Y43.254 E4.36974
G1 X175.291 Y43.825 E4.40093
G1 X175.984 Y44.457 E4.43212
G1 X176.621 Y45.145 E4.46331
G1 X177.196 Y45.886 E4.4945
G1 X177.707 Y46.672 E4.52569
G1 X178.149 Y47.5 E4.5569
G1 X178.518 Y48.362 E4.58809
G1 X178.813 Y49.252 E4.61928
G1 X179.031 Y50.164 E4.65046
G1 X179.171 Y51.092 E4.68168
G1 X179.229 Y51.954 E4.71041
G1 X179.238 Y52.275 E4.72109
G1 X179.242 Y52.582 E4.73131
G1 X179.25 Y167.083 E8.53962
G1 X179.25 Y167.515 E8.55399
G1 X179.249 Y167.652 E8.55855
G1 X179.24 Y168.379 E8.58273
G1 X179.189 Y169.316 E8.61394
G1 X179.057 Y170.244 E8.64512
G1 X178.848 Y171.158 E8.6763
G1 X178.561 Y172.051 E8.7075
G1 X178.199 Y172.917 E8.73872
G1 X177.765 Y173.748 E8.7699
G1 X177.261 Y174.539 E8.8011
G1 X176.692 Y175.284 E8.83228
G1 X176.061 Y175.979 E8.8635
G1 X175.374 Y176.617 E8.89468
G1 X174.635 Y177.194 E8.92586
G1 X173.849 Y177.706 E8.95706
G1 X173.023 Y178.149 E8.98824
G1 X172.161 Y178.521 E9.01946
G1 X171.272 Y178.817 E9.05063
G1 X170.36 Y179.037 E9.08183
G1 X169.433 Y179.178 E9.11302
G1 X168.549 Y179.239 E9.14249
G1 X168.228 Y179.248 E9.15317
G1 X167.92 Y179.252 E9.16342
G1 X52.957 Y179.252 E12.9871
G1 X52.815 Y179.251 E12.99182
G1 X52.117 Y179.242 E13.01504
G1 X51.181 Y179.19 E13.04622
G1 X50.252 Y179.058 E13.07743
G1 X49.338 Y178.848 E13.10862
G1 X48.445 Y178.561 E13.13982
G1 X47.58 Y178.198 E13.17102
G1 X46.749 Y177.764 E13.2022
G1 X45.958 Y177.26 E13.2334
G1 X45.213 Y176.69 E13.2646
G1 X44.519 Y176.059 E13.29579
G1 X43.882 Y175.372 E13.32695
G1 X43.305 Y174.632 E13.35816
G1 X42.793 Y173.846 E13.38936
G1 X42.35 Y173.019 E13.42057
G1 X41.979 Y172.158 E13.45175
G1 X41.683 Y171.268 E13.48295
G1 X41.464 Y170.356 E13.51414
G1 X41.323 Y169.429 E13.54533
G1 X41.263 Y168.54 E13.57496
G1 X41.254 Y168.207 E13.58604
G1 X41.25 Y167.91 E13.59592
G1 X41.25 Y52.926 E17.42031
G1 X41.251 Y52.777 E17.42526
G1 X41.26 Y52.112 E17.44738
G1 X41.313 Y51.176 E17.47856
G1 X41.445 Y50.247 E17.50977
G1 X41.656 Y49.333 E17.54097
G1 X41.944 Y48.441 E17.57215
G1 X42.307 Y47.576 E17.60335
G1 X42.742 Y46.745 E17.63455
G1 X43.246 Y45.955 E17.66571
G1 X43.816 Y45.21 E17.69691
G1 X44.448 Y44.516 E17.72813
G0 F6000 X44.839 Y44.691
G1 F1200 X45.524 Y44.075 E17.75877
G1 X46.26 Y43.522 E17.78939
G1 X47.041 Y43.034 E17.82002
G1 X47.861 Y42.616 E17.85063
G1 X48.715 Y42.271 E17.88127
G1 X49.595 Y42.001 E17.91188
G1 X50.495 Y41.809 E17.94249
G1 X51.409 Y41.695 E17.97313
G1 X51.962 Y41.665 E17.99155
G1 X52.283 Y41.656 E18.00223
G1 X52.58 Y41.652 E18.01211
G1 X167.535 Y41.652 E21.83553
G1 X167.687 Y41.653 E21.84058
G1 X168.385 Y41.663 E21.8638
G1 X169.304 Y41.716 E21.89442
G1 X170.215 Y41.849 E21.92504
G1 X171.111 Y42.06 E21.95565
G1 X171.985 Y42.348 E21.98626
G1 X172.832 Y42.711 E22.01691
G1 X173.643 Y43.146 E22.04752
G1 X174.413 Y43.65 E22.07813
G1 X175.137 Y44.219 E22.10876
G1 X175.809 Y44.849 E22.13939
G1 X176.424 Y45.534 E22.17001
G1 X176.977 Y46.27 E22.20063
G1 X177.464 Y47.051 E22.23124
G1 X177.881 Y47.872 E22.26187
G1 X178.226 Y48.726 E22.2925
G1 X178.495 Y49.606 E22.32311
G1 X178.687 Y50.507 E22.35375
G1 X178.8 Y51.42 E22.38435
G1 X178.829 Y51.965 E22.4025
G1 X178.838 Y52.286 E22.41318
G1 X178.842 Y52.582 E22.42303
G1 X178.85 Y167.083 E26.23135
G1 X178.85 Y167.515 E26.24571
G1 X178.849 Y167.647 E26.2501
G1 X178.84 Y168.374 E26.27429
G1 X178.789 Y169.293 E26.3049
G1 X178.658 Y170.205 E26.33554
G1 X178.448 Y171.101 E26.36615
G1 X178.162 Y171.976 E26.39677
G1 X177.801 Y172.823 E26.42739
G1 X177.367 Y173.635 E26.45802
G1 X176.865 Y174.407 E26.48864
G1 X176.297 Y175.132 E26.51928
G1 X175.669 Y175.805 E26.54989
G1 X174.985 Y176.421 E26.58051
G1 X174.25 Y176.975 E26.61112
G1 X173.47 Y177.464 E26.64174
G1 X172.65 Y177.883 E26.67237
G1 X171.797 Y178.229 E26.70299
G1 X170.917 Y178.5 E26.73361
G1 X170.017 Y178.693 E26.76423
G1 X169.103 Y178.808 E26.79486
G1 X168.538 Y178.839 E26.81368
G1 X168.217 Y178.848 E26.82437
G1 X167.92 Y178.852 E26.83424
G1 X52.957 Y178.852 E30.65793
G1 X52.82 Y178.851 E30.66249
G1 X52.122 Y178.842 E30.6857
G1 X51.203 Y178.79 E30.71632
G1 X50.292 Y178.659 E30.74693
G1 X49.396 Y178.449 E30.77754
G1 X48.521 Y178.162 E30.80817
G1 X47.674 Y177.8 E30.8388
G1 X46.862 Y177.366 E30.86943
G1 X46.091 Y176.864 E30.90003
G1 X45.366 Y176.296 E30.93066
G1 X44.693 Y175.667 E30.9613
G1 X44.078 Y174.983 E30.99189
G1 X43.524 Y174.248 E31.0225
G1 X43.036 Y173.467 E31.05313
G1 X42.617 Y172.647 E31.08376
G1 X42.271 Y171.794 E31.11438
G1 X42.001 Y170.914 E31.14499
G1 X41.808 Y170.013 E31.17564
G1 X41.694 Y169.1 E31.20624
G1 X41.663 Y168.529 E31.22526
G1 X41.654 Y168.196 E31.23634
G1 X41.65 Y167.91 E31.24586
G1 X41.65 Y52.926 E35.07024
G1 X41.651 Y52.783 E35.075
G1 X41.66 Y52.118 E35.09712
G1 X41.712 Y51.198 E35.12776
G1 X41.844 Y50.287 E35.15838
G1 X42.055 Y49.391 E35.189
G1 X42.342 Y48.516 E35.21962
G1 X42.705 Y47.67 E35.25024
G1 X43.139 Y46.858 E35.28087
G1 X43.642 Y46.087 E35.31148
G1 X44.211 Y45.363 E35.34211
G1 X44.839 Y44.691 E35.3727
G0 F6000 X45.231 Y44.869
G1 F1200 X45.912 Y44.276 E35.40274
G1 X46.644 Y43.746 E35.43279
G1 X47.419 Y43.283 E35.46282
G1 X48.232 Y42.89 E35.49286
G1 X49.077 Y42.57 E35.52291
G1 X49.946 Y42.327 E35.55292
G1 X50.834 Y42.161 E35.58297
G1 X51.973 Y42.065 E35.62098
G1 X52.294 Y42.056 E35.63166
G1 X52.58 Y42.052 E35.64118
G1 X167.535 Y42.052 E39.4646
G1 X167.681 Y42.053 E39.46945
G1 X168.379 Y42.063 E39.49267
G1 X169.281 Y42.116 E39.52272
G1 X170.174 Y42.248 E39.55275
G1 X171.052 Y42.459 E39.58278
G1 X171.908 Y42.747 E39.61282
G1 X172.735 Y43.109 E39.64285
G1 X173.527 Y43.544 E39.6729
G1 X174.278 Y44.046 E39.70294
G1 X174.981 Y44.613 E39.73298
G1 X175.631 Y45.24 E39.76302
G1 X176.223 Y45.922 E39.79306
G1 X176.753 Y46.653 E39.82309
G1 X177.215 Y47.429 E39.85313
G1 X177.608 Y48.242 E39.88316
G1 X177.926 Y49.087 E39.91319
G1 X178.169 Y49.957 E39.94323
G1 X178.334 Y50.845 E39.97328
G1 X178.429 Y51.976 E40.01102
G1 X178.438 Y52.297 E40.02171
G1 X178.442 Y52.582 E40.03119
G1 X178.45 Y167.083 E43.8395
G1 X178.45 Y167.515 E43.85387
G1 X178.449 Y167.642 E43.8581
G1 X178.44 Y168.369 E43.88228
G1 X178.389 Y169.271 E43.91233
G1 X178.258 Y170.165 E43.94238
G1 X178.049 Y171.043 E43.9724
G1 X177.763 Y171.9 E44.00245
G1 X177.402 Y172.728 E44.03249
G1 X176.97 Y173.52 E44.0625
G1 X176.469 Y174.272 E44.09255
G1 X175.903 Y174.976 E44.12259
G1 X175.278 Y175.627 E44.15261
G1 X174.597 Y176.221 E44.18267
G1 X173.866 Y176.752 E44.21272
G1 X173.092 Y177.216 E44.24273
G1 X172.279 Y177.61 E44.27278
G1 X171.435 Y177.93 E44.3028
G1 X170.565 Y178.175 E44.33286
G1 X169.678 Y178.341 E44.36288
G1 X168.527 Y178.439 E44.4013
G1 X168.206 Y178.448 E44.41198
G1 X167.92 Y178.452 E44.42149
G1 X52.957 Y178.452 E48.24518
G1 X52.825 Y178.451 E48.24957
G1 X52.127 Y178.442 E48.27279
G1 X51.226 Y178.391 E48.3028
G1 X50.332 Y178.259 E48.33286
G1 X49.454 Y178.05 E48.36288
G1 X48.597 Y177.763 E48.39294
G1 X47.77 Y177.402 E48.42295
G1 X46.977 Y176.969 E48.453
G1 X46.226 Y176.468 E48.48303
G1 X45.522 Y175.902 E48.51307
G1 X44.871 Y175.276 E48.54311
G1 X44.278 Y174.595 E48.57314
G1 X43.748 Y173.864 E48.60317
G1 X43.284 Y173.089 E48.63322
G1 X42.89 Y172.276 E48.66327
G1 X42.57 Y171.432 E48.69329
G1 X42.326 Y170.562 E48.72334
G1 X42.16 Y169.674 E48.75339
G1 X42.063 Y168.519 E48.79194
G1 X42.054 Y168.186 E48.80302
G1 X42.05 Y167.91 E48.8122
G1 X42.05 Y52.926 E52.63658
G1 X42.051 Y52.788 E52.64117
G1 X42.06 Y52.123 E52.66329
G1 X42.112 Y51.221 E52.69334
G1 X42.244 Y50.328 E52.72337
G1 X42.454 Y49.45 E52.75339
G1 X42.741 Y48.593 E52.78345
G1 X43.103 Y47.766 E52.81348
G1 X43.536 Y46.974 E52.8435
G1 X44.038 Y46.223 E52.87354
G1 X44.605 Y45.519 E52.90361
G1 X45.231 Y44.869 E52.93362
G1 F2700 E47.93362
;MESH:W8BH Case Top Square.stl
G0 F6000 X70.585 Y61.91
G0 X70.585 Y60.075
G0 X156.68 Y60.817
G0 X157.252 Y123.251
;TYPE:WALL-INNER
G1 F2700 E52.93362
G1 F1200 X157.252 Y60.245 E55.02921
G1 X62.247 Y60.245 E58.18909
G1 X62.247 Y123.251 E60.28468
G1 X157.252 Y123.251 E63.44456
G0 F6000 X156.852 Y122.851
G1 F1200 X156.852 Y60.645 E65.51354
G1 X62.647 Y60.645 E68.64681
G1 X62.647 Y122.851 E70.71579
G1 X156.852 Y122.851 E73.84906
G0 F6000 X156.452 Y122.451
;TYPE:WALL-OUTER
G1 F1200 X156.452 Y61.045 E75.89143
G1 X63.047 Y61.045 E78.9981
G1 X63.047 Y122.451 E81.04047
G1 X156.452 Y122.451 E84.14713
G1 F2700 E79.14713
G0 F6000 X156.752 Y122.451
G0 X156.688 Y122.656
G0 X145.173 Y123.441
G0 X145.173 Y121.586
G0 X147.026 Y135.159
G0 X146.734 Y133.308
G0 X146.649 Y134.1
G0 X145.348 Y134.306
G0 X143.413 Y135.294
G0 X141.875 Y136.832
G0 X140.887 Y138.767
G0 X140.549 Y140.915
G0 X140.887 Y143.062
G0 X141.875 Y144.998
G0 X143.12 Y146.242
G0 X145.173 Y148.062
;TYPE:WALL-INNER
G1 F2700 E84.14713
G1 F1200 X147.496 Y148.429 E84.22535
G1 X149.818 Y148.062 E84.30354
G1 X151.913 Y146.995 E84.38174
G1 X153.576 Y145.332 E84.45996
G1 X154.643 Y143.237 E84.53816
G1 X155.01 Y140.915 E84.61635
G1 X154.643 Y138.592 E84.69457
G1 X153.576 Y136.498 E84.77273
G1 X151.913 Y134.834 E84.85098
G1 X149.818 Y133.767 E84.92918
G1 X147.496 Y133.4 E85.00737
G1 X145.173 Y133.767 E85.08559
G1 X143.079 Y134.834 E85.16375
G1 X141.415 Y136.498 E85.24202
G1 X140.348 Y138.592 E85.32019
G1 X139.981 Y140.915 E85.39841
G1 X140.348 Y143.237 E85.4766
G1 X141.415 Y145.332 E85.5548
G1 X143.079 Y146.995 E85.63304
G1 X145.173 Y148.062 E85.71121
G0 F6000 X145.298 Y147.677
G1 F1200 X147.496 Y148.024 E85.78522
G1 X149.693 Y147.677 E85.8592
G1 X151.675 Y146.667 E85.93319
G1 X153.248 Y145.094 E86.00718
G1 X154.258 Y143.112 E86.08116
G1 X154.605 Y140.915 E86.15514
G1 X154.258 Y138.717 E86.22915
G1 X153.248 Y136.736 E86.30311
G1 X151.675 Y135.162 E86.37712
G1 X149.693 Y134.152 E86.45111
G1 X147.496 Y133.805 E86.52509
G1 X145.298 Y134.152 E86.5991
G1 X143.317 Y135.162 E86.67306
G1 X141.743 Y136.736 E86.74709
G1 X140.733 Y138.717 E86.82105
G1 X140.386 Y140.915 E86.89506
G1 X140.733 Y143.112 E86.96904
G1 X141.743 Y145.094 E87.04303
G1 X143.317 Y146.667 E87.11704
G1 X145.298 Y147.677 E87.191
G0 F6000 X145.423 Y147.292
;TYPE:WALL-OUTER
G1 F1200 X147.496 Y147.619 E87.2608
G1 X149.568 Y147.292 E87.33057
G1 X151.437 Y146.339 E87.40035
G1 X152.92 Y144.856 E87.4701
G1 X153.873 Y142.987 E87.53988
G1 X154.2 Y140.915 E87.60965
G1 X153.873 Y138.842 E87.67945
G1 X152.92 Y136.974 E87.7492
G1 X151.437 Y135.49 E87.81898
G1 X149.568 Y134.537 E87.88875
G1 X147.496 Y134.21 E87.95852
G1 X145.423 Y134.537 E88.02832
G1 X143.555 Y135.49 E88.09807
G1 X142.071 Y136.974 E88.16787
G1 X141.118 Y138.842 E88.23762
G1 X140.791 Y140.915 E88.30742
G1 X141.118 Y142.987 E88.37719
G1 X142.071 Y144.856 E88.44697
G1 X143.555 Y146.339 E88.51675
G1 X145.423 Y147.292 E88.5865
G0 F6000 X145.288 Y147.71
G1 F2700 E83.5865
G0 F6000 X142.965 Y147.151
G0 X144.069 Y145.631
G0 X127.484 Y145.631
G0 X128.588 Y147.151
G0 X124.511 Y147.79
G0 X121.735 Y148.062
;TYPE:WALL-INNER
G1 F2700 E88.5865
G1 F1200 X124.057 Y148.429 E88.66469
G1 X126.379 Y148.062 E88.74287
G1 X128.474 Y146.995 E88.82107
G1 X130.138 Y145.332 E88.89932
G1 X131.204 Y143.237 E88.9775
G1 X131.573 Y140.915 E89.0557
G1 X131.204 Y138.592 E89.13393
G1 X130.138 Y136.498 E89.21208
G1 X128.474 Y134.834 E89.29035
G1 X126.379 Y133.767 E89.36855
G1 X124.059 Y133.4 E89.44667
G1 X123.7 Y133.456 E89.45876
G1 X121.735 Y133.767 E89.52493
G1 X119.963 Y134.67 E89.59107
G1 X119.64 Y134.834 E89.60312
G1 X117.976 Y136.498 E89.68139
G1 X116.91 Y138.592 E89.75954
G1 X116.543 Y140.915 E89.83777
G1 X116.91 Y143.237 E89.91595
G1 X117.976 Y145.332 E89.99414
G1 X119.64 Y146.995 E90.07238
G1 X121.735 Y148.062 E90.15058
G0 F6000 X121.86 Y147.677
G1 F1200 X124.057 Y148.024 E90.22456
G1 X126.254 Y147.677 E90.29853
G1 X128.236 Y146.667 E90.37252
G1 X129.81 Y145.094 E90.44653
G1 X130.819 Y143.112 E90.52051
G1 X131.168 Y140.915 E90.5945
G1 X130.819 Y138.717 E90.66852
G1 X129.81 Y136.736 E90.74246
G1 X128.236 Y135.162 E90.8165
G1 X126.254 Y134.152 E90.89048
G1 X124.058 Y133.805 E90.96443
G1 X123.762 Y133.851 E90.97439
G1 X121.86 Y134.152 E91.03844
G1 X120.145 Y135.026 E91.10246
G1 X119.878 Y135.162 E91.11243
G1 X118.304 Y136.736 E91.18646
G1 X117.295 Y138.717 E91.26041
G1 X116.948 Y140.915 E91.33442
G1 X117.295 Y143.112 E91.4084
G1 X118.304 Y145.094 E91.48237
G1 X119.878 Y146.667 E91.55638
G1 X121.86 Y147.677 E91.63037
G0 F6000 X121.985 Y147.292
;TYPE:WALL-OUTER
G1 F1200 X124.057 Y147.619 E91.70014
G1 X126.129 Y147.292 E91.7699
G1 X127.998 Y146.339 E91.83968
G1 X129.482 Y144.856 E91.90946
G1 X130.434 Y142.987 E91.97922
G1 X130.763 Y140.915 E92.049
G1 X130.434 Y138.842 E92.11881
G1 X129.482 Y136.974 E92.18855
G1 X127.998 Y135.49 E92.25835
G1 X126.129 Y134.537 E92.32813
G1 X124.057 Y134.21 E92.3979
G1 X123.824 Y134.246 E92.40574
G1 X121.985 Y134.537 E92.46766
G1 X120.327 Y135.382 E92.52956
G1 X120.116 Y135.49 E92.53744
G1 X118.632 Y136.974 E92.60724
G1 X117.68 Y138.842 E92.67698
G1 X117.353 Y140.915 E92.74678
G1 X117.68 Y142.987 E92.81655
G1 X118.632 Y144.856 E92.88631
G1 X120.116 Y146.339 E92.95609
G1 X121.985 Y147.292 E93.02587
G0 F6000 X121.85 Y147.71
G1 F2700 E88.02587
G0 F6000 X119.526 Y147.151
G0 X120.63 Y145.631
G0 X119.526 Y168.917
G0 X119.526 Y167.042
G0 X53.25 Y167.252
;TYPE:WALL-INNER
G1 F2700 E93.02587
G1 F1200 X53.25 Y53.252 E96.81752
G1 X167.242 Y53.252 E100.60891
G1 X167.25 Y166.972 E104.39125
G1 X167.25 Y167.091 E104.39521
G1 X167.25 Y167.252 E104.40057
G1 X167.131 Y167.252 E104.40369
G1 X53.25 Y167.252 E108.19139
G0 F6000 X52.85 Y167.652
G1 F1200 X52.85 Y52.852 E112.00965
G1 X167.642 Y52.852 E115.82765
G1 X167.65 Y167.091 E119.62725
G1 X167.65 Y167.652 E119.64591
G1 X52.85 Y167.652 E123.46418
G0 F6000 X52.45 Y168.052
;TYPE:WALL-OUTER
G1 F1200 X52.45 Y52.452 E127.30905
G1 X168.042 Y52.452 E131.15365
G1 X168.05 Y167.091 E134.96656
G1 X168.05 Y168.052 E134.99852
G1 X52.45 Y168.052 E138.8434
G0 F6000 X52.72 Y167.782
G0 X53.36 Y166.862
G0 X53.64 Y166.862
;TYPE:SKIN
G1 F1200 X53.64 Y53.642 E142.60911
G1 X166.852 Y53.642 E146.37456
G1 X166.86 Y166.862 E150.14027
G1 X53.64 Y166.862 E153.90598
G1 F2700 E148.90598
G0 F6000 X53.36 Y166.862
G0 X53.46 Y123.391
G0 X51.585 Y123.391
G0 X63.912 Y121.324
G0 X62.077 Y121.324
G0 X62.137 Y123.391
G0 X61.857 Y123.641
G1 F2700 E153.90598
G1 F1200 X157.642 Y123.641 E157.0918
G1 X157.642 Y59.855 E159.21333
G1 X61.857 Y59.855 E162.39916
G1 X61.857 Y123.641 E164.52069
G1 F2700 E159.52069
G0 F6000 X62.137 Y123.391
G0 X116.805 Y123.441
G0 X116.805 Y121.586
G0 X119.34 Y137.488
G0 X117.82 Y136.384
G0 X117.62 Y137.668
G0 X116.805 Y143.273
G0 X116.534 Y143.358
G1 F2700 E164.52069
G1 F1200 X117.656 Y145.564 E164.603
G1 X119.408 Y147.315 E164.68539
