;FLAVOR:Marlin
;TIME:2619
;Filament used: 1.75587m
;Layer height: 0.2
;MINX:70.775
;MINY:75
;MINZ:0.2
;MAXX:149.225
;MAXY:145
;MAXZ:9.2
;Generated with Cura_SteamEngine 4.4.1
M140 S75
M105
M190 S75
M104 S215
M105
M109 S215
M82 ;absolute extrusion mode
M201 X500.00 Y500.00 Z100.00 E5000.00 ;Setup machine max acceleration
M203 X500.00 Y500.00 Z10.00 E50.00 ;Setup machine max feedrate
M204 P500.00 R1000.00 T500.00 ;Setup Print/Retract/Travel acceleration
M205 X8.00 Y8.00 Z0.40 E5.00 ;Setup Jerk
M220 S100 ;Reset Feedrate
M221 S100 ;Reset Flowrate

G28 ;Home

G92 E0 ;Reset Extruder
G1 Z2.0 F3000 ;Move Z Axis up
G1 X10.1 Y20 Z0.28 F5000.0 ;Move to start position
G1 X10.1 Y200.0 Z0.28 F1500.0 E15 ;Draw the first line
G1 X10.4 Y200.0 Z0.28 F5000.0 ;Move to side a little
G1 X10.4 Y20 Z0.28 F1500.0 E30 ;Draw the second line
G92 E0 ;Reset Extruder
G1 Z2.0 F3000 ;Move Z Axis up

G92 E0
G92 E0
G1 F2700 E-5
;LAYER_COUNT:50
;LAYER:0
M107
G0 F6000 X73.971 Y78.492 Z0.2
;TYPE:SKIRT
G1 F2700 E0
G1 F1200 X74.66 Y77.855 E0.03121
G1 X75.399 Y77.279 E0.06237
G1 X76.186 Y76.767 E0.0936
G1 X77.012 Y76.325 E0.12476
G1 X77.874 Y75.954 E0.15597
G1 X78.764 Y75.659 E0.18716
G1 X79.676 Y75.44 E0.21835
G1 X80.603 Y75.3 E0.24953
G1 X81.175 Y75.253 E0.26862
G1 X82.167 Y75.198 E0.30167
G1 X82.529 Y75.184 E0.31372
G1 X85.021 Y75.128 E0.39662
G1 X85.268 Y75.125 E0.40484
G1 X128.397 Y75.125 E1.83932
G1 X131.007 Y75.088 E1.92613
G1 X132.495 Y75.03 E1.97566
G1 X132.727 Y75.024 E1.98338
G1 X133.957 Y75.002 E2.0243
G1 X134.154 Y75 E2.03085
G1 X137.517 Y75 E2.1427
G1 X137.675 Y75.001 E2.14796
G1 X138.373 Y75.011 E2.17118
G1 X139.309 Y75.065 E2.20236
G1 X140.237 Y75.197 E2.23354
G1 X141.151 Y75.409 E2.26474
G1 X142.043 Y75.698 E2.29593
G1 X142.908 Y76.061 E2.32713
G1 X143.738 Y76.497 E2.35831
G1 X144.529 Y77.002 E2.38953
G1 X145.273 Y77.573 E2.42072
G1 X145.966 Y78.205 E2.45191
G1 X146.603 Y78.893 E2.4831
G1 X147.178 Y79.634 E2.51429
G1 X147.689 Y80.42 E2.54548
G1 X148.131 Y81.248 E2.57669
G1 X148.5 Y82.11 E2.60788
G1 X148.795 Y83 E2.63907
G1 X149.013 Y83.912 E2.67025
G1 X149.153 Y84.84 E2.70147
G1 X149.211 Y85.697 E2.73004
G1 X149.22 Y86.013 E2.74055
G1 X149.224 Y86.326 E2.75096
G1 X149.225 Y133.063 E4.30544
G1 X149.224 Y133.215 E4.3105
G1 X149.214 Y133.941 E4.33465
G1 X149.161 Y134.877 E4.36583
G1 X149.029 Y135.805 E4.397
G1 X148.818 Y136.719 E4.4282
G1 X148.529 Y137.612 E4.45942
G1 X148.166 Y138.476 E4.49059
G1 X147.731 Y139.307 E4.52179
G1 X147.226 Y140.098 E4.553
G1 X146.656 Y140.842 E4.58417
G1 X146.025 Y141.536 E4.61537
G1 X145.336 Y142.173 E4.64658
G1 X144.596 Y142.749 E4.67777
G1 X143.81 Y143.26 E4.70895
G1 X142.983 Y143.702 E4.74014
G1 X142.121 Y144.072 E4.77134
G1 X141.231 Y144.368 E4.80254
G1 X140.319 Y144.586 E4.83372
G1 X139.391 Y144.726 E4.86494
G1 X138.565 Y144.783 E4.89248
G1 X138.251 Y144.793 E4.90293
G1 X137.903 Y144.799 E4.9145
G1 X133.277 Y144.8 E5.06836
G1 X133.269 Y144.8 E5.06863
G1 X93.489 Y144.779 E6.39172
G1 X90.875 Y144.815 E6.47867
G1 X88.57 Y144.908 E6.5554
G1 X87.592 Y144.96 E6.58797
G1 X87.215 Y144.974 E6.60052
G1 X85.96 Y144.998 E6.64227
G1 X85.75 Y145 E6.64925
G1 X82.483 Y145 E6.75791
G1 X82.341 Y144.999 E6.76264
G1 X81.643 Y144.99 E6.78585
G1 X80.707 Y144.938 E6.81703
G1 X79.778 Y144.806 E6.84824
G1 X78.864 Y144.596 E6.87943
G1 X77.971 Y144.309 E6.91063
G1 X77.106 Y143.946 E6.94183
G1 X76.275 Y143.512 E6.97301
G1 X75.484 Y143.008 E7.00421
G1 X74.739 Y142.438 E7.03541
G1 X74.045 Y141.807 E7.06661
G1 X73.408 Y141.12 E7.09777
G1 X72.831 Y140.38 E7.12898
G1 X72.319 Y139.594 E7.16018
G1 X71.876 Y138.767 E7.19138
G1 X71.505 Y137.906 E7.22256
G1 X71.209 Y137.016 E7.25376
G1 X70.99 Y136.104 E7.28495
G1 X70.849 Y135.177 E7.31614
G1 X70.789 Y134.288 E7.34578
G1 X70.78 Y133.955 E7.35686
G1 X70.776 Y133.658 E7.36673
G1 X70.775 Y86.908 E8.92165
G1 X70.776 Y86.761 E8.92653
G1 X70.785 Y86.089 E8.94889
G1 X70.838 Y85.152 E8.9801
G1 X70.97 Y84.224 E9.01128
G1 X71.18 Y83.31 E9.04247
G1 X71.468 Y82.417 E9.07368
G1 X71.831 Y81.552 E9.10488
G1 X72.266 Y80.722 E9.13605
G1 X72.77 Y79.931 E9.16724
G1 X73.34 Y79.186 E9.19844
G1 X73.971 Y78.492 E9.22964
G0 F6000 X74.363 Y78.667
G1 F1200 X75.048 Y78.051 E9.26028
G1 X75.784 Y77.498 E9.2909
G1 X76.565 Y77.01 E9.32153
G1 X77.385 Y76.592 E9.35214
G1 X78.238 Y76.247 E9.38274
G1 X79.119 Y75.977 E9.41339
G1 X80.019 Y75.784 E9.44401
G1 X81.197 Y75.652 E9.48343
G1 X82.189 Y75.597 E9.51648
G1 X82.538 Y75.584 E9.52809
G1 X85.03 Y75.528 E9.611
G1 X85.268 Y75.525 E9.61891
G1 X128.403 Y75.525 E11.05359
G1 X131.029 Y75.488 E11.14094
G1 X132.511 Y75.43 E11.19027
G1 X132.734 Y75.424 E11.19769
G1 X133.964 Y75.402 E11.23861
G1 X134.154 Y75.4 E11.24493
G1 X137.517 Y75.4 E11.35678
G1 X137.669 Y75.401 E11.36183
G1 X138.367 Y75.411 E11.38505
G1 X139.286 Y75.464 E11.41567
G1 X140.197 Y75.597 E11.44629
G1 X141.093 Y75.808 E11.47691
G1 X141.967 Y76.096 E11.50751
G1 X142.814 Y76.459 E11.53816
G1 X143.625 Y76.894 E11.56877
G1 X144.395 Y77.398 E11.59938
G1 X145.119 Y77.967 E11.63001
G1 X145.791 Y78.597 E11.66065
G1 X146.406 Y79.282 E11.69126
G1 X146.959 Y80.018 E11.72188
G1 X147.446 Y80.799 E11.7525
G1 X147.863 Y81.62 E11.78312
G1 X148.208 Y82.474 E11.81376
G1 X148.477 Y83.354 E11.84436
G1 X148.669 Y84.255 E11.875
G1 X148.782 Y85.168 E11.9056
G1 X148.811 Y85.708 E11.92359
G1 X148.82 Y86.024 E11.9341
G1 X148.824 Y86.326 E11.94415
G1 X148.825 Y133.063 E13.49863
G1 X148.824 Y133.209 E13.50348
G1 X148.814 Y133.935 E13.52763
G1 X148.761 Y134.854 E13.55825
G1 X148.629 Y135.765 E13.58886
G1 X148.418 Y136.661 E13.61948
G1 X148.131 Y137.536 E13.65011
G1 X147.768 Y138.382 E13.68073
G1 X147.334 Y139.194 E13.71135
G1 X146.83 Y139.965 E13.74199
G1 X146.262 Y140.689 E13.77259
G1 X145.633 Y141.361 E13.80321
G1 X144.948 Y141.976 E13.83383
G1 X144.212 Y142.53 E13.86447
G1 X143.431 Y143.017 E13.89508
G1 X142.61 Y143.435 E13.92572
G1 X141.757 Y143.78 E13.95632
G1 X140.877 Y144.049 E13.98693
G1 X139.976 Y144.242 E14.01758
G1 X139.063 Y144.355 E14.04817
G1 X138.552 Y144.384 E14.0652
G1 X138.238 Y144.394 E14.07565
G1 X137.903 Y144.399 E14.08679
G1 X133.277 Y144.4 E14.24065
G1 X133.269 Y144.4 E14.24092
G1 X93.484 Y144.379 E15.56417
G1 X90.854 Y144.415 E15.65166
G1 X88.606 Y144.506 E15.72649
G1 X87.57 Y144.561 E15.76099
G1 X87.208 Y144.574 E15.77304
G1 X85.953 Y144.598 E15.81479
G1 X85.75 Y144.6 E15.82154
G1 X82.483 Y144.6 E15.9302
G1 X82.346 Y144.599 E15.93476
G1 X81.648 Y144.59 E15.95798
G1 X80.729 Y144.538 E15.98859
G1 X79.818 Y144.407 E16.0192
G1 X78.922 Y144.197 E16.04981
G1 X78.047 Y143.91 E16.08044
G1 X77.2 Y143.548 E16.11108
G1 X76.388 Y143.114 E16.1417
G1 X75.617 Y142.612 E16.1723
G1 X74.892 Y142.044 E16.20293
G1 X74.219 Y141.415 E16.23357
G1 X73.604 Y140.731 E16.26416
G1 X73.05 Y139.996 E16.29478
G1 X72.562 Y139.215 E16.32541
G1 X72.143 Y138.395 E16.35603
G1 X71.797 Y137.542 E16.38665
G1 X71.527 Y136.662 E16.41726
G1 X71.334 Y135.761 E16.44791
G1 X71.22 Y134.848 E16.47851
G1 X71.189 Y134.277 E16.49753
G1 X71.18 Y133.944 E16.50861
G1 X71.176 Y133.658 E16.51813
G1 X71.175 Y86.908 E18.07304
G1 X71.176 Y86.766 E18.07776
G1 X71.185 Y86.094 E18.10011
G1 X71.237 Y85.175 E18.13073
G1 X71.369 Y84.264 E18.16135
G1 X71.58 Y83.367 E18.19199
G1 X71.867 Y82.493 E18.22259
G1 X72.229 Y81.646 E18.25323
G1 X72.663 Y80.835 E18.28382
G1 X73.167 Y80.064 E18.31446
G1 X73.735 Y79.339 E18.34509
G1 X74.363 Y78.667 E18.37568
G0 F6000 X74.755 Y78.845
G1 F1200 X75.436 Y78.252 E18.40572
G1 X76.167 Y77.722 E18.43575
G1 X76.942 Y77.258 E18.46579
G1 X77.756 Y76.865 E18.49585
G1 X78.6 Y76.546 E18.52586
G1 X79.47 Y76.302 E18.55592
G1 X80.358 Y76.136 E18.58596
G1 X81.219 Y76.052 E18.61474
G1 X82.211 Y75.997 E18.64778
G1 X82.547 Y75.984 E18.65896
G1 X85.039 Y75.928 E18.74187
G1 X85.268 Y75.925 E18.74949
G1 X128.409 Y75.925 E20.18436
G1 X131.049 Y75.888 E20.27218
G1 X132.526 Y75.83 E20.32134
G1 X132.742 Y75.824 E20.32853
G1 X133.972 Y75.802 E20.36944
G1 X134.154 Y75.8 E20.3755
G1 X137.517 Y75.8 E20.48735
G1 X137.663 Y75.801 E20.49221
G1 X138.361 Y75.811 E20.51543
G1 X139.263 Y75.864 E20.54548
G1 X140.156 Y75.996 E20.5755
G1 X141.034 Y76.207 E20.60554
G1 X141.89 Y76.495 E20.63557
G1 X142.717 Y76.857 E20.6656
G1 X143.509 Y77.292 E20.69565
G1 X144.26 Y77.794 E20.7257
G1 X144.963 Y78.361 E20.75574
G1 X145.613 Y78.988 E20.78578
G1 X146.205 Y79.67 E20.81581
G1 X146.735 Y80.401 E20.84584
G1 X147.197 Y81.177 E20.87588
G1 X147.59 Y81.99 E20.90592
G1 X147.908 Y82.835 E20.93595
G1 X148.151 Y83.705 E20.96599
G1 X148.316 Y84.593 E20.99603
G1 X148.411 Y85.72 E21.03365
G1 X148.42 Y86.036 E21.04416
G1 X148.424 Y86.326 E21.05381
G1 X148.425 Y133.063 E22.60829
G1 X148.424 Y133.203 E22.61294
G1 X148.414 Y133.929 E22.63709
G1 X148.362 Y134.831 E22.66714
G1 X148.23 Y135.724 E22.69717
G1 X148.019 Y136.603 E22.72723
G1 X147.732 Y137.459 E22.75726
G1 X147.37 Y138.286 E22.78729
G1 X146.936 Y139.078 E22.81733
G1 X146.434 Y139.829 E22.84737
G1 X145.868 Y140.533 E22.87741
G1 X145.241 Y141.183 E22.90745
G1 X144.56 Y141.776 E22.93749
G1 X143.828 Y142.305 E22.96753
G1 X143.053 Y142.769 E22.99757
G1 X142.24 Y143.161 E23.02759
G1 X141.395 Y143.481 E23.05764
G1 X140.525 Y143.724 E23.08768
G1 X139.638 Y143.889 E23.11769
G1 X138.54 Y143.984 E23.15435
G1 X138.226 Y143.994 E23.1648
G1 X137.903 Y143.999 E23.17554
G1 X133.277 Y144 E23.3294
G1 X133.27 Y144 E23.32964
G1 X93.479 Y143.979 E24.65309
G1 X90.87 Y144.015 E24.73987
G1 X88.494 Y144.111 E24.81896
G1 X87.549 Y144.161 E24.85044
G1 X87.2 Y144.174 E24.86206
G1 X85.945 Y144.198 E24.9038
G1 X85.75 Y144.2 E24.91029
G1 X82.483 Y144.2 E25.01895
G1 X82.351 Y144.199 E25.02334
G1 X81.653 Y144.19 E25.04656
G1 X80.752 Y144.139 E25.07657
G1 X79.858 Y144.007 E25.10663
G1 X78.98 Y143.798 E25.13665
G1 X78.123 Y143.511 E25.16671
G1 X77.296 Y143.15 E25.19672
G1 X76.503 Y142.717 E25.22677
G1 X75.752 Y142.216 E25.2568
G1 X75.048 Y141.65 E25.28684
G1 X74.397 Y141.024 E25.31688
G1 X73.804 Y140.343 E25.34692
G1 X73.274 Y139.612 E25.37695
G1 X72.81 Y138.837 E25.40699
G1 X72.416 Y138.024 E25.43704
G1 X72.096 Y137.18 E25.46706
G1 X71.852 Y136.31 E25.49711
G1 X71.686 Y135.422 E25.52716
G1 X71.589 Y134.267 E25.56571
G1 X71.58 Y133.934 E25.57679
G1 X71.576 Y133.658 E25.58597
G1 X71.575 Y86.908 E27.14088
G1 X71.576 Y86.771 E27.14544
G1 X71.585 Y86.099 E27.16779
G1 X71.637 Y85.198 E27.19781
G1 X71.769 Y84.304 E27.22787
G1 X71.979 Y83.426 E27.25789
G1 X72.266 Y82.57 E27.28792
G1 X72.627 Y81.742 E27.31796
G1 X73.061 Y80.95 E27.348
G1 X73.562 Y80.199 E27.37803
G1 X74.129 Y79.495 E27.40809
G1 X74.755 Y78.845 E27.43811
G1 F2700 E22.43811
;MESH:W8BH Display Angled Bezel Long PCB.stl
G0 F6000 X87.39 Y123.624
G0 X85.555 Y123.624
G0 X85.725 Y129.825
;TYPE:WALL-INNER
G1 F2700 E27.43811
G1 F1200 X134.275 Y129.825 E29.05289
G1 X134.275 Y90.075 E30.37498
G1 X85.725 Y90.075 E31.98976
G1 X85.725 Y129.825 E33.31185
G0 F6000 X86.125 Y129.425
G1 F1200 X133.875 Y129.425 E34.90002
G1 X133.875 Y90.475 E36.1955
G1 X86.125 Y90.475 E37.78367
G1 X86.125 Y129.425 E39.07916
G0 F6000 X86.525 Y129.025
;TYPE:WALL-OUTER
G1 F1200 X133.475 Y129.025 E40.64072
G1 X133.475 Y90.875 E41.90959
G1 X86.525 Y90.875 E43.47116
G1 X86.525 Y129.025 E44.74003
G1 F2700 E39.74003
G0 F6000 X86.225 Y129.025
G0 X85.729 Y130.015
G0 X85.726 Y132.585
G0 X85.729 Y133
;TYPE:WALL-INNER
G1 F2700 E44.74003
G1 F1200 X82.776 Y133 E44.83825
G1 X82.775 Y87.399 E46.35494
G1 X82.775 Y87.2 E46.36156
G1 X82.974 Y87.2 E46.36584
G1 X85.25 Y87.2 E46.44154
G1 X85.25 Y87.125 E46.44404
G1 X134.267 Y87.124 E48.07435
G1 X134.268 Y87 E48.07848
G1 X137.224 Y87 E48.17679
G1 X137.225 Y132.601 E49.69349
G1 X137.225 Y132.8 E49.70011
G1 X137.026 Y132.8 E49.70439
G1 X85.73 Y132.775 E51.4105
G1 X85.729 Y133 E51.41798
G0 F6000 X86.128 Y133.175
G1 F1200 X86.127 Y133.4 E51.42547
G1 X82.376 Y133.4 E51.55023
G1 X82.375 Y86.988 E53.0939
G1 X82.375 Y86.801 E53.10012
G1 X82.399 Y86.8 E53.10091
G1 X82.586 Y86.8 E53.10713
G1 X84.85 Y86.8 E53.18244
G1 X84.85 Y86.725 E53.18493
G1 X133.87 Y86.724 E54.81534
G1 X133.871 Y86.6 E54.81947
G1 X137.624 Y86.6 E54.94429
G1 X137.625 Y133.001 E56.48759
G1 X137.625 Y133.2 E56.49421
G1 X137.426 Y133.2 E56.4985
G1 X86.128 Y133.175 E58.20467
G0 F6000 X86.525 Y133.8
;TYPE:WALL-OUTER
G1 F1200 X81.976 Y133.8 E58.35598
G1 X81.975 Y86.416 E59.93197
G1 X82.383 Y86.4 E59.94555
G1 X84.45 Y86.4 E60.0143
G1 X84.45 Y86.326 E60.01676
G1 X84.85 Y86.325 E60.03007
G1 X133.473 Y86.325 E61.64728
G1 X133.474 Y86.2 E61.65143
G1 X138.024 Y86.2 E61.80277
G1 X138.025 Y133.6 E63.3793
G1 X86.526 Y133.575 E65.09216
G1 X86.525 Y133.8 E65.09964
G0 F6000 X86.256 Y133.53
G0 X85.62 Y132.611
G0 X85.341 Y132.61
;TYPE:SKIN
G1 F1200 X83.166 Y132.61 E65.17199
G1 X83.165 Y87.59 E66.66936
G1 X85.64 Y87.59 E66.75168
G1 X85.64 Y87.515 E66.75417
G1 X134.653 Y87.514 E68.38435
G1 X134.654 Y87.39 E68.38847
G1 X136.834 Y87.39 E68.46098
G1 X136.835 Y132.41 E69.95835
G1 X85.342 Y132.385 E71.67102
G1 X85.341 Y132.61 E71.6785
G1 F2700 E66.6785
G0 F6000 X85.62 Y132.665
G0 X85.612 Y132.585
G0 X85.612 Y130.015
G0 X85.615 Y129.965
G0 X85.335 Y130.215
G1 F2700 E71.6785
G1 F1200 X134.665 Y130.215 E73.31922
G1 X134.665 Y89.685 E74.66726
G1 X85.335 Y89.685 E76.30798
G1 X85.335 Y130.215 E77.65601
G1 F2700 E72.65601
G0 F6000 X85.615 Y129.965
G0 X85.529 Y130.021
G0 X85.52 Y132.79
G0 X83.799 Y132.89
G0 X83.799 Y132.448
G1 F2700 E77.65601
G1 F1200 X83.325 Y131.974 E77.67831
G0 F6000 X83.325 Y131.408
G1 F1200 X84.365 Y132.448 E77.72723
G0 F6000 X84.931 Y132.448
G1 F1200 X83.325 Y130.843 E77.80274
G0 F6000 X83.325 Y130.277
G1 F1200 X85.272 Y132.224 E77.89432
G0 F6000 X85.837 Y132.224
G1 F1200 X83.325 Y129.711 E78.0125
G0 F6000 X83.325 Y129.145
G1 F1200 X86.403 Y132.224 E78.15731
G0 F6000 X86.969 Y132.224
G1 F1200 X83.325 Y128.58 E78.32871
G0 F6000 X83.325 Y128.014
G1 F1200 X85.175 Y129.864 E78.41573
G0 F6000 X85.175 Y129.298
G1 F1200 X83.325 Y127.448 E78.50275
G0 F6000 X83.325 Y126.883
G1 F1200 X85.175 Y128.733 E78.58976
G0 F6000 X85.175 Y128.167
G1 F1200 X83.325 Y126.317 E78.67678
G0 F6000 X83.325 Y125.751
G1 F1200 X85.175 Y127.601 E78.7638
G0 F6000 X85.175 Y127.035
G1 F1200 X83.325 Y125.186 E78.8508
G0 F6000 X83.325 Y124.62
G1 F1200 X85.175 Y126.47 E78.93781
G0 F6000 X85.175 Y125.904
G1 F1200 X83.325 Y124.054 E79.02483
G0 F6000 X83.325 Y123.489
G1 F1200 X85.175 Y125.338 E79.11183
G0 F6000 X85.175 Y124.773
G1 F1200 X83.325 Y122.923 E79.19885
G0 F6000 X83.325 Y122.357
G1 F1200 X85.175 Y124.207 E79.28586
G0 F6000 X85.175 Y123.641
G1 F1200 X83.325 Y121.792 E79.37286
G0 F6000 X83.325 Y121.226
G1 F1200 X85.175 Y123.076 E79.45988
G0 F6000 X85.175 Y122.51
G1 F1200 X83.325 Y120.66 E79.5469
G0 F6000 X83.325 Y120.095
G1 F1200 X85.175 Y121.944 E79.63389
G0 F6000 X85.175 Y121.379
G1 F1200 X83.325 Y119.529 E79.72091
G0 F6000 X83.325 Y118.963
G1 F1200 X85.175 Y120.813 E79.80793
G0 F6000 X85.175 Y120.247
G1 F1200 X83.325 Y118.397 E79.89495
G0 F6000 X83.325 Y117.832
G1 F1200 X85.175 Y119.682 E79.98196
G0 F6000 X85.175 Y119.116
G1 F1200 X83.325 Y117.266 E80.06898
G0 F6000 X83.325 Y116.7
G1 F1200 X85.175 Y118.55 E80.156
G0 F6000 X85.175 Y117.985
G1 F1200 X83.325 Y116.135 E80.24302
G0 F6000 X83.325 Y115.569
G1 F1200 X85.175 Y117.419 E80.33004
G0 F6000 X85.175 Y116.853
G1 F1200 X83.325 Y115.003 E80.41706
G0 F6000 X83.325 Y114.438
G1 F1200 X85.175 Y116.287 E80.50405
G0 F6000 X85.175 Y115.722
G1 F1200 X83.325 Y113.872 E80.59107
G0 F6000 X83.325 Y113.306
G1 F1200 X85.175 Y115.156 E80.67809
G0 F6000 X85.175 Y114.59
G1 F1200 X83.325 Y112.741 E80.76508
G0 F6000 X83.325 Y112.175
G1 F1200 X85.175 Y114.025 E80.8521
G0 F6000 X85.175 Y113.459
G1 F1200 X83.325 Y111.609 E80.93912
G0 F6000 X83.325 Y111.044
G1 F1200 X85.175 Y112.893 E81.02611
G0 F6000 X85.175 Y112.328
G1 F1200 X83.325 Y110.478 E81.11313
G0 F6000 X83.325 Y109.912
G1 F1200 X85.175 Y111.762 E81.20015
G0 F6000 X85.175 Y111.196
G1 F1200 X83.325 Y109.346 E81.28717
G0 F6000 X83.325 Y108.781
G1 F1200 X85.175 Y110.631 E81.37419
G0 F6000 X85.175 Y110.065
G1 F1200 X83.325 Y108.215 E81.46121
G0 F6000 X83.325 Y107.649
G1 F1200 X85.175 Y109.499 E81.54822
G0 F6000 X85.175 Y108.934
G1 F1200 X83.325 Y107.084 E81.63524
G0 F6000 X83.325 Y106.518
