;FLAVOR:Marlin
;TIME:14719
;Filament used: 10.1815m
;Layer height: 0.2
;MINX:53.5
;MINY:20
;MINZ:0.2
;MAXX:166.5
;MAXY:200
;MAXZ:10
;Generated with Cura_SteamEngine 4.4.1
M140 S75
M105
M190 S75
M104 S215
M105
M109 S215
M82 ;absolute extrusion mode
M201 X500.00 Y500.00 Z100.00 E5000.00 ;Setup machine max acceleration
M203 X500.00 Y500.00 Z10.00 E50.00 ;Setup machine max feedrate
M204 P500.00 R1000.00 T500.00 ;Setup Print/Retract/Travel acceleration
M205 X8.00 Y8.00 Z0.40 E5.00 ;Setup Jerk
M220 S100 ;Reset Feedrate
M221 S100 ;Reset Flowrate

G28 ;Home

G92 E0 ;Reset Extruder
G1 Z2.0 F3000 ;Move Z Axis up
G1 X10.1 Y20 Z0.28 F5000.0 ;Move to start position
G1 X10.1 Y200.0 Z0.28 F1500.0 E15 ;Draw the first line
G1 X10.4 Y200.0 Z0.28 F5000.0 ;Move to side a little
G1 X10.4 Y20 Z0.28 F1500.0 E30 ;Draw the second line
G92 E0 ;Reset Extruder
G1 Z2.0 F3000 ;Move Z Axis up

G92 E0
G92 E0
G1 F2700 E-5
;LAYER_COUNT:50
;LAYER:0
M107
G0 F6000 X54.557 Y26.324 Z0.2
;TYPE:SKIRT
G1 F2700 E0
G1 F1200 X54.992 Y25.493 E0.0312
G1 X55.496 Y24.703 E0.06236
G1 X56.066 Y23.958 E0.09356
G1 X56.698 Y23.264 E0.12478
G1 X57.386 Y22.627 E0.15597
G1 X58.126 Y22.051 E0.18716
G1 X58.912 Y21.539 E0.21836
G1 X59.739 Y21.097 E0.24955
G1 X60.601 Y20.727 E0.28075
G1 X61.491 Y20.431 E0.31194
G1 X62.403 Y20.213 E0.34313
G1 X63.33 Y20.072 E0.37432
G1 X64.201 Y20.013 E0.40335
G1 X64.522 Y20.004 E0.41403
G1 X64.83 Y20 E0.42428
G1 X154.793 Y20 E3.41646
G1 X154.951 Y20.001 E3.42171
G1 X155.649 Y20.011 E3.44493
G1 X156.585 Y20.065 E3.47612
G1 X157.513 Y20.197 E3.50729
G1 X158.427 Y20.409 E3.5385
G1 X159.319 Y20.698 E3.56968
G1 X160.184 Y21.061 E3.60089
G1 X161.014 Y21.497 E3.63207
G1 X161.805 Y22.002 E3.66328
G1 X162.549 Y22.573 E3.69448
G1 X163.242 Y23.205 E3.72567
G1 X163.879 Y23.893 E3.75686
G1 X164.454 Y24.634 E3.78805
G1 X164.965 Y25.42 E3.81923
G1 X165.407 Y26.248 E3.85045
G1 X165.776 Y27.11 E3.88164
G1 X166.071 Y28 E3.91282
G1 X166.289 Y28.912 E3.94401
G1 X166.429 Y29.84 E3.97522
G1 X166.487 Y30.701 E4.00393
G1 X166.496 Y31.021 E4.01457
G1 X166.5 Y31.33 E4.02485
G1 X166.5 Y75.29 E5.48697
G1 X166.499 Y75.448 E5.49222
G1 X166.489 Y76.146 E5.51544
G1 X166.435 Y77.082 E5.54662
G1 X166.303 Y78.01 E5.5778
G1 X166.017 Y79.18 E5.61786
G1 X165.775 Y79.978 E5.6456
G1 X165.72 Y80.153 E5.6517
G1 X165.392 Y81.173 E5.68733
G1 X164.697 Y83.563 E5.77012
G1 X164.057 Y86.022 E5.85463
G1 X163.497 Y88.458 E5.93776
G1 X162.993 Y90.959 E6.02262
G1 X162.573 Y93.428 E6.10592
G1 X162.221 Y95.898 E6.1889
G1 X161.933 Y98.431 E6.27369
G1 X161.721 Y100.92 E6.35678
G1 X161.582 Y103.368 E6.43833
G1 X161.498 Y107.345 E6.57063
G1 X161.498 Y110.715 E6.68272
G1 X161.535 Y113.324 E6.7695
G1 X161.642 Y115.846 E6.85346
G1 X161.819 Y118.34 E6.93662
G1 X162.067 Y120.838 E7.02011
G1 X162.385 Y123.327 E7.10357
G1 X162.779 Y125.836 E7.18804
G1 X163.238 Y128.302 E7.27147
G1 X163.765 Y130.753 E7.35485
G1 X164.368 Y133.213 E7.4391
G1 X165.035 Y135.637 E7.52272
G1 X165.824 Y138.212 E7.61229
G1 X165.962 Y138.64 E7.62725
G1 X166.21 Y139.544 E7.65843
G1 X166.381 Y140.466 E7.68961
G1 X166.485 Y141.67 E7.72981
G1 X166.495 Y141.995 E7.74062
G1 X166.5 Y142.333 E7.75187
G1 X166.5 Y188.264 E9.27954
G1 X166.499 Y188.4 E9.28406
G1 X166.49 Y189.127 E9.30824
G1 X166.439 Y190.064 E9.33945
G1 X166.307 Y190.992 E9.37063
G1 X166.098 Y191.906 E9.40182
G1 X165.811 Y192.799 E9.43301
G1 X165.449 Y193.665 E9.46423
G1 X165.015 Y194.496 E9.49541
G1 X164.511 Y195.287 E9.52661
G1 X163.942 Y196.032 E9.55779
G1 X163.311 Y196.727 E9.58901
G1 X162.624 Y197.365 E9.62019
G1 X161.885 Y197.942 E9.65138
G1 X161.099 Y198.454 E9.68258
G1 X160.273 Y198.897 E9.71375
G1 X159.411 Y199.269 E9.74498
G1 X158.522 Y199.565 E9.77614
G1 X157.61 Y199.785 E9.80734
G1 X156.683 Y199.926 E9.83853
G1 X155.799 Y199.987 E9.868
G1 X155.478 Y199.996 E9.87868
G1 X155.17 Y200 E9.88893
G1 X65.207 Y200 E12.88111
G1 X65.065 Y199.999 E12.88583
G1 X64.367 Y199.99 E12.90905
G1 X63.431 Y199.938 E12.94023
G1 X62.502 Y199.806 E12.97144
G1 X61.588 Y199.596 E13.00263
G1 X60.695 Y199.309 E13.03383
G1 X59.83 Y198.946 E13.06503
G1 X58.999 Y198.512 E13.09621
G1 X58.208 Y198.008 E13.12741
G1 X57.463 Y197.438 E13.15861
G1 X56.769 Y196.807 E13.1898
G1 X56.132 Y196.12 E13.22096
G1 X55.555 Y195.38 E13.25217
G1 X55.043 Y194.594 E13.28337
G1 X54.6 Y193.767 E13.31458
G1 X54.229 Y192.906 E13.34576
G1 X53.933 Y192.016 E13.37696
G1 X53.714 Y191.104 E13.40815
G1 X53.573 Y190.177 E13.43934
G1 X53.513 Y189.288 E13.46897
G1 X53.504 Y188.955 E13.48005
G1 X53.5 Y188.658 E13.48993
G1 X53.5 Y31.674 E18.71124
G1 X53.501 Y31.525 E18.7162
G1 X53.51 Y30.86 E18.73832
G1 X53.563 Y29.924 E18.7695
G1 X53.695 Y28.995 E18.80071
G1 X53.906 Y28.081 E18.83191
G1 X54.194 Y27.189 E18.86308
G1 X54.557 Y26.324 E18.89428
G0 F6000 X54.955 Y26.418
G1 F1200 X55.389 Y25.606 E18.92491
G1 X55.892 Y24.835 E18.95552
G1 X56.461 Y24.111 E18.98615
G1 X57.089 Y23.439 E19.01674
G1 X57.774 Y22.823 E19.04738
G1 X58.51 Y22.27 E19.078
G1 X59.291 Y21.782 E19.10863
G1 X60.111 Y21.364 E19.13925
G1 X60.965 Y21.019 E19.16988
G1 X61.845 Y20.749 E19.2005
G1 X62.745 Y20.557 E19.2311
G1 X63.659 Y20.443 E19.26174
G1 X64.212 Y20.413 E19.28016
G1 X64.533 Y20.404 E19.29084
G1 X64.83 Y20.4 E19.30072
G1 X154.793 Y20.4 E22.2929
G1 X154.945 Y20.401 E22.29796
G1 X155.643 Y20.411 E22.32117
G1 X156.562 Y20.464 E22.35179
G1 X157.473 Y20.597 E22.38241
G1 X158.369 Y20.808 E22.41303
G1 X159.243 Y21.096 E22.44363
G1 X160.09 Y21.459 E22.47428
G1 X160.901 Y21.894 E22.50489
G1 X161.671 Y22.398 E22.5355
G1 X162.395 Y22.967 E22.56613
G1 X163.067 Y23.597 E22.59677
G1 X163.682 Y24.282 E22.62738
G1 X164.235 Y25.018 E22.658
G1 X164.722 Y25.799 E22.68862
G1 X165.139 Y26.62 E22.71924
G1 X165.484 Y27.474 E22.74988
G1 X165.753 Y28.354 E22.78048
G1 X165.945 Y29.255 E22.81112
G1 X166.058 Y30.168 E22.84172
G1 X166.087 Y30.712 E22.85984
G1 X166.096 Y31.032 E22.87049
G1 X166.1 Y31.33 E22.8804
G1 X166.1 Y75.29 E24.34252
G1 X166.099 Y75.442 E24.34757
G1 X166.089 Y76.14 E24.37079
G1 X166.036 Y77.059 E24.40141
G1 X165.903 Y77.97 E24.43203
G1 X165.634 Y79.064 E24.4695
G1 X165.392 Y79.862 E24.49723
G1 X165.339 Y80.031 E24.50312
G1 X165.013 Y81.045 E24.53855
G1 X164.312 Y83.456 E24.62206
G1 X163.664 Y85.945 E24.70761
G1 X163.101 Y88.395 E24.79122
G1 X162.601 Y90.878 E24.87546
G1 X162.181 Y93.341 E24.95856
G1 X161.821 Y95.868 E25.04346
G1 X161.539 Y98.35 E25.12654
G1 X161.322 Y100.901 E25.21169
G1 X161.182 Y103.366 E25.29381
G1 X161.098 Y107.337 E25.42592
G1 X161.098 Y110.721 E25.53847
G1 X161.135 Y113.346 E25.62579
G1 X161.242 Y115.855 E25.70931
G1 X161.42 Y118.371 E25.7932
G1 X161.67 Y120.895 E25.87756
G1 X161.991 Y123.403 E25.96166
G1 X162.378 Y125.865 E26.04455
G1 X162.847 Y128.387 E26.12987
G1 X163.379 Y130.861 E26.21404
G1 X163.979 Y133.309 E26.29787
G1 X164.652 Y135.755 E26.38225
G1 X165.425 Y138.277 E26.46998
G1 X165.581 Y138.762 E26.48693
G1 X165.824 Y139.65 E26.51755
G1 X165.99 Y140.556 E26.54818
G1 X166.085 Y141.682 E26.58577
G1 X166.095 Y142.007 E26.59658
G1 X166.1 Y142.333 E26.60742
G1 X166.1 Y188.264 E28.1351
G1 X166.099 Y188.395 E28.13945
G1 X166.09 Y189.122 E28.16364
G1 X166.039 Y190.041 E28.19425
G1 X165.908 Y190.953 E28.22489
G1 X165.698 Y191.849 E28.2555
G1 X165.412 Y192.724 E28.28612
G1 X165.051 Y193.571 E28.31674
G1 X164.617 Y194.383 E28.34737
G1 X164.115 Y195.155 E28.37799
G1 X163.547 Y195.88 E28.40863
G1 X162.919 Y196.553 E28.43924
G1 X162.235 Y197.169 E28.46986
G1 X161.5 Y197.723 E28.50047
G1 X160.72 Y198.212 E28.53109
G1 X159.9 Y198.631 E28.56172
G1 X159.047 Y198.977 E28.59233
G1 X158.167 Y199.248 E28.62296
G1 X157.267 Y199.441 E28.65357
G1 X156.353 Y199.556 E28.68421
G1 X155.788 Y199.587 E28.70303
G1 X155.467 Y199.596 E28.71371
G1 X155.17 Y199.6 E28.72359
G1 X65.207 Y199.6 E31.71578
G1 X65.07 Y199.599 E31.72033
G1 X64.372 Y199.59 E31.74355
G1 X63.453 Y199.538 E31.77416
G1 X62.542 Y199.407 E31.80478
G1 X61.646 Y199.197 E31.83538
G1 X60.771 Y198.91 E31.86601
G1 X59.924 Y198.548 E31.89665
G1 X59.112 Y198.114 E31.92727
G1 X58.341 Y197.612 E31.95787
G1 X57.616 Y197.044 E31.9885
G1 X56.943 Y196.415 E32.01914
G1 X56.328 Y195.731 E32.04974
G1 X55.774 Y194.996 E32.08035
G1 X55.286 Y194.215 E32.11098
G1 X54.867 Y193.395 E32.14161
G1 X54.521 Y192.542 E32.17222
G1 X54.251 Y191.662 E32.20284
G1 X54.058 Y190.761 E32.23349
G1 X53.944 Y189.848 E32.26409
G1 X53.913 Y189.277 E32.28311
G1 X53.904 Y188.944 E32.29419
G1 X53.9 Y188.658 E32.3037
G1 X53.9 Y31.674 E37.52501
G1 X53.901 Y31.531 E37.52977
G1 X53.91 Y30.866 E37.55189
G1 X53.962 Y29.946 E37.58253
G1 X54.094 Y29.035 E37.61315
G1 X54.305 Y28.139 E37.64377
G1 X54.592 Y27.264 E37.6744
G1 X54.955 Y26.418 E37.70501
G0 F6000 X55.353 Y26.514
G1 F1200 X55.786 Y25.722 E37.73504
G1 X56.288 Y24.971 E37.76508
G1 X56.855 Y24.267 E37.79515
G1 X57.481 Y23.617 E37.82516
G1 X58.162 Y23.024 E37.85519
G1 X58.894 Y22.494 E37.88525
G1 X59.669 Y22.031 E37.91528
G1 X60.482 Y21.638 E37.94531
G1 X61.327 Y21.318 E37.97537
G1 X62.196 Y21.075 E38.00538
G1 X63.084 Y20.909 E38.03542
G1 X64.223 Y20.813 E38.07344
G1 X64.544 Y20.804 E38.08412
G1 X64.83 Y20.8 E38.09364
G1 X154.793 Y20.8 E41.08582
G1 X154.939 Y20.801 E41.09067
G1 X155.637 Y20.811 E41.11389
G1 X156.539 Y20.864 E41.14394
G1 X157.432 Y20.996 E41.17397
G1 X158.31 Y21.207 E41.204
G1 X159.166 Y21.495 E41.23404
G1 X159.993 Y21.857 E41.26407
G1 X160.785 Y22.292 E41.29412
G1 X161.536 Y22.794 E41.32417
G1 X162.239 Y23.361 E41.3542
G1 X162.889 Y23.988 E41.38424
G1 X163.481 Y24.67 E41.41428
G1 X164.011 Y25.401 E41.44431
G1 X164.473 Y26.177 E41.47435
G1 X164.866 Y26.99 E41.50438
G1 X165.184 Y27.835 E41.53441
G1 X165.427 Y28.705 E41.56446
G1 X165.592 Y29.593 E41.5945
G1 X165.687 Y30.723 E41.63221
G1 X165.696 Y31.043 E41.64286
G1 X165.7 Y31.33 E41.65241
G1 X165.7 Y75.29 E43.11452
G1 X165.699 Y75.436 E43.11938
G1 X165.689 Y76.134 E43.1426
G1 X165.636 Y77.036 E43.17265
G1 X165.504 Y77.929 E43.20267
G1 X165.251 Y78.948 E43.23759
G1 X165.009 Y79.746 E43.26533
G1 X164.958 Y79.908 E43.27098
G1 X164.634 Y80.915 E43.30616
G1 X163.917 Y83.381 E43.39158
G1 X163.283 Y85.819 E43.47536
G1 X162.711 Y88.306 E43.56024
G1 X162.208 Y90.803 E43.64496
G1 X161.784 Y93.288 E43.72881
G1 X161.427 Y95.798 E43.81313
G1 X161.138 Y98.343 E43.89832
G1 X160.925 Y100.845 E43.98184
G1 X160.782 Y103.363 E44.06572
G1 X160.698 Y107.328 E44.19763
G1 X160.698 Y110.727 E44.31068
G1 X160.735 Y113.333 E44.39736
G1 X160.844 Y115.899 E44.48279
G1 X161.022 Y118.406 E44.56638
G1 X161.27 Y120.915 E44.65023
G1 X161.598 Y123.478 E44.73618
G1 X161.989 Y125.963 E44.81984
G1 X162.45 Y128.446 E44.90384
G1 X162.984 Y130.927 E44.98825
G1 X163.591 Y133.405 E45.0731
G1 X164.27 Y135.873 E45.15824
G1 X165.07 Y138.481 E45.24897
G1 X165.2 Y138.885 E45.26309
G1 X165.438 Y139.756 E45.29312
G1 X165.598 Y140.645 E45.32316
G1 X165.685 Y141.694 E45.35817
G1 X165.695 Y142.019 E45.36899
G1 X165.7 Y142.333 E45.37943
G1 X165.7 Y188.264 E46.9071
G1 X165.699 Y188.39 E46.91129
G1 X165.69 Y189.117 E46.93548
G1 X165.639 Y190.019 E46.96552
G1 X165.508 Y190.913 E46.99558
G1 X165.299 Y191.791 E47.02559
G1 X165.013 Y192.648 E47.05564
G1 X164.652 Y193.476 E47.08569
G1 X164.22 Y194.268 E47.11569
G1 X163.719 Y195.02 E47.14575
G1 X163.153 Y195.724 E47.17579
G1 X162.528 Y196.375 E47.20581
G1 X161.847 Y196.969 E47.23586
G1 X161.116 Y197.5 E47.26591
G1 X160.342 Y197.964 E47.29593
G1 X159.529 Y198.358 E47.32598
G1 X158.685 Y198.678 E47.356
G1 X157.815 Y198.923 E47.38606
G1 X156.928 Y199.089 E47.41607
G1 X155.777 Y199.187 E47.45449
G1 X155.456 Y199.196 E47.46518
G1 X155.17 Y199.2 E47.47469
G1 X65.207 Y199.2 E50.46687
G1 X65.075 Y199.199 E50.47126
G1 X64.377 Y199.19 E50.49448
G1 X63.476 Y199.139 E50.52449
G1 X62.582 Y199.007 E50.55455
G1 X61.704 Y198.798 E50.58457
G1 X60.847 Y198.511 E50.61463
G1 X60.02 Y198.15 E50.64464
G1 X59.227 Y197.717 E50.67469
G1 X58.476 Y197.216 E50.70472
G1 X57.772 Y196.65 E50.73476
G1 X57.121 Y196.024 E50.7648
G1 X56.528 Y195.343 E50.79484
G1 X55.998 Y194.612 E50.82487
G1 X55.534 Y193.837 E50.85491
G1 X55.14 Y193.024 E50.88496
G1 X54.82 Y192.18 E50.91498
G1 X54.576 Y191.31 E50.94503
G1 X54.41 Y190.422 E50.97508
G1 X54.313 Y189.267 E51.01363
G1 X54.304 Y188.934 E51.02471
G1 X54.3 Y188.658 E51.03389
G1 X54.3 Y31.674 E56.2552
G1 X54.301 Y31.536 E56.25979
G1 X54.31 Y30.871 E56.28191
G1 X54.362 Y29.969 E56.31196
G1 X54.494 Y29.076 E56.34198
G1 X54.704 Y28.198 E56.37201
G1 X54.991 Y27.341 E56.40207
G1 X55.353 Y26.514 E56.4321
G1 F2700 E51.4321
;MESH:W8BH Case Top Long PCB.stl
G0 F6000 X104.162 Y129.939
G0 X102.327 Y129.939
G0 X102.497 Y134.003
;TYPE:WALL-INNER
G1 F2700 E56.4321
G1 F1200 X145.502 Y134.003 E57.86245
G1 X145.503 Y132.237 E57.92119
G1 X145.502 Y83.997 E59.52565
G1 X102.497 Y83.997 E60.95601
G1 X102.497 Y134.003 E62.61921
G0 F6000 X102.897 Y133.603
G1 F1200 X145.102 Y133.603 E64.02296
G1 X145.103 Y132.237 E64.06839
G1 X145.102 Y84.397 E65.65956
G1 X102.897 Y84.397 E67.0633
G1 X102.897 Y133.603 E68.6999
G0 F6000 X103.297 Y133.203
;TYPE:WALL-OUTER
G1 F1200 X144.702 Y133.203 E70.07703
G1 X144.703 Y132.237 E70.10916
G1 X144.702 Y84.797 E71.68702
G1 X103.297 Y84.797 E73.06416
G1 X103.297 Y133.203 E74.67415
G1 F2700 E69.67415
G0 F6000 X102.997 Y133.203
G0 X102.327 Y132.076
G0 X104.162 Y132.076
G0 X95.048 Y134.484
G0 X96.568 Y135.588
G0 X90.904 Y139.476
;TYPE:WALL-INNER
G1 F2700 E74.67415
G1 F1200 X93.974 Y137.912 E74.78875
G1 X96.412 Y135.474 E74.90342
G1 X97.976 Y132.404 E75.01802
G1 X98.514 Y129 E75.13264
G1 X97.976 Y125.596 E75.24726
G1 X96.412 Y122.526 E75.36186
G1 X93.974 Y120.088 E75.47653
G1 X90.904 Y118.524 E75.59113
G1 X87.5 Y117.986 E75.70575
G1 X84.519 Y118.456 E75.80613
G1 X84.094 Y118.524 E75.82044
G1 X81.407 Y119.895 E75.92077
G1 X81.026 Y120.088 E75.93498
G1 X78.588 Y122.526 E76.04965
G1 X77.024 Y125.596 E76.16425
G1 X76.485 Y129 E76.27888
G1 X77.024 Y132.404 E76.3935
G1 X78.588 Y135.474 E76.5081
G1 X81.026 Y137.912 E76.62278
G1 X84.096 Y139.476 E76.73737
G1 X87.5 Y140.015 E76.852
G1 X90.904 Y139.476 E76.96663
G0 F6000 X90.779 Y139.091
G1 F1200 X93.736 Y137.584 E77.07701
G1 X96.084 Y135.236 E77.18746
G1 X97.591 Y132.279 E77.29784
G1 X98.109 Y129 E77.40826
G1 X97.591 Y125.721 E77.51867
G1 X96.084 Y122.764 E77.62905
G1 X93.736 Y120.416 E77.7395
G1 X90.779 Y118.909 E77.84988
G1 X87.5 Y118.391 E77.96029
G1 X84.582 Y118.851 E78.05855
G1 X84.22 Y118.909 E78.07074
G1 X81.589 Y120.251 E78.16897
G1 X81.264 Y120.416 E78.1811
G1 X78.916 Y122.764 E78.29154
G1 X77.409 Y125.721 E78.40193
G1 X76.89 Y129 E78.51234
G1 X77.409 Y132.279 E78.62276
G1 X78.916 Y135.236 E78.73315
G1 X81.264 Y137.584 E78.84359
G1 X84.221 Y139.091 E78.95398
G1 X87.5 Y139.61 E79.06439
G1 X90.779 Y139.091 E79.17481
G0 F6000 X90.654 Y138.706
;TYPE:WALL-OUTER
G1 F1200 X93.498 Y137.256 E79.28099
G1 X95.756 Y134.998 E79.3872
G1 X97.206 Y132.154 E79.49337
G1 X97.704 Y129 E79.59958
G1 X97.206 Y125.846 E79.70578
G1 X95.756 Y123.002 E79.81195
G1 X93.498 Y120.744 E79.91816
G1 X90.654 Y119.294 E80.02434
G1 X87.5 Y118.796 E80.13054
G1 X84.645 Y119.246 E80.22667
G1 X84.346 Y119.294 E80.23674
G1 X81.771 Y120.607 E80.33288
G1 X81.502 Y120.744 E80.34292
G1 X79.244 Y123.002 E80.44913
G1 X77.794 Y125.846 E80.55531
G1 X77.295 Y129 E80.66151
G1 X77.794 Y132.154 E80.76772
G1 X79.244 Y134.998 E80.8739
G1 X81.502 Y137.256 E80.98011
G1 X84.346 Y138.706 E81.08628
G1 X87.5 Y139.205 E81.19249
G1 X90.654 Y138.706 E81.2987
G0 F6000 X90.789 Y139.124
G1 F2700 E76.2987
G0 F6000 X87.5 Y140.208
G0 X87.5 Y138.33
G0 X87.499 Y153.67
G0 X87.5 Y151.793
G0 X90.729 Y153.063
G0 X93.64 Y154.548
G0 X95.952 Y156.86
G0 X97.437 Y159.771
G0 X97.946 Y163
G0 X97.437 Y166.229
G0 X95.952 Y169.14
G0 X93.64 Y171.452
G0 X90.904 Y173.476
;TYPE:WALL-INNER
G1 F2700 E81.2987
G1 F1200 X93.974 Y171.912 E81.41329
G1 X96.412 Y169.474 E81.52797
G1 X97.976 Y166.404 E81.64257
G1 X98.514 Y163 E81.75719
G1 X97.976 Y159.596 E81.87181
G1 X96.412 Y156.526 E81.98641
G1 X93.974 Y154.088 E82.10108
G1 X90.904 Y152.524 E82.21568
G1 X87.5 Y151.986 E82.3303
G1 X84.519 Y152.456 E82.43067
G1 X84.094 Y152.524 E82.44499
G1 X81.407 Y153.895 E82.54532
G1 X81.026 Y154.088 E82.55953
G1 X78.588 Y156.526 E82.6742
G1 X77.024 Y159.596 E82.7888
