;FLAVOR:Marlin
;TIME:2890
;Filament used: 1.85743m
;Layer height: 0.2
;MINX:60.506
;MINY:75
;MINZ:0.2
;MAXX:159.494
;MAXY:145
;MAXZ:6
;Generated with Cura_SteamEngine 4.4.1
M140 S75
M105
M190 S75
M104 S215
M105
M109 S215
M82 ;absolute extrusion mode
M201 X500.00 Y500.00 Z100.00 E5000.00 ;Setup machine max acceleration
M203 X500.00 Y500.00 Z10.00 E50.00 ;Setup machine max feedrate
M204 P500.00 R1000.00 T500.00 ;Setup Print/Retract/Travel acceleration
M205 X8.00 Y8.00 Z0.40 E5.00 ;Setup Jerk
M220 S100 ;Reset Feedrate
M221 S100 ;Reset Flowrate

G28 ;Home

G92 E0 ;Reset Extruder
G1 Z2.0 F3000 ;Move Z Axis up
G1 X10.1 Y20 Z0.28 F5000.0 ;Move to start position
G1 X10.1 Y200.0 Z0.28 F1500.0 E15 ;Draw the first line
G1 X10.4 Y200.0 Z0.28 F5000.0 ;Move to side a little
G1 X10.4 Y20 Z0.28 F1500.0 E30 ;Draw the second line
G92 E0 ;Reset Extruder
G1 Z2.0 F3000 ;Move Z Axis up

G92 E0
G92 E0
G1 F2700 E-5
;LAYER_COUNT:30
;LAYER:0
M107
G0 F6000 X64.406 Y77.617 Z0.2
;TYPE:SKIRT
G1 F2700 E0
G1 F1200 X65.147 Y77.042 E0.0312
G1 X65.934 Y76.532 E0.06239
G1 X66.762 Y76.091 E0.09359
G1 X67.624 Y75.722 E0.12478
G1 X68.515 Y75.428 E0.15598
G1 X69.427 Y75.21 E0.18717
G1 X70.355 Y75.072 E0.21837
G1 X71.177 Y75.015 E0.24578
G1 X71.5 Y75.005 E0.25653
G1 X71.84 Y75 E0.26784
G1 X76.891 Y75 E0.43583
G1 X77.049 Y75.001 E0.44109
G1 X77.747 Y75.011 E0.46431
G1 X78.683 Y75.065 E0.49549
G1 X79.611 Y75.197 E0.52667
G1 X80.525 Y75.409 E0.55787
G1 X81.073 Y75.576 E0.57693
G1 X81.603 Y75.753 E0.59551
G1 X84.102 Y76.557 E0.68283
G1 X86.498 Y77.255 E0.76583
G1 X88.957 Y77.895 E0.85034
G1 X91.427 Y78.467 E0.93467
G1 X93.861 Y78.954 E1.01723
G1 X96.336 Y79.379 E1.10075
G1 X98.853 Y79.737 E1.18531
G1 X101.323 Y80.019 E1.268
G1 X103.856 Y80.235 E1.35255
G1 X106.373 Y80.379 E1.4364
G1 X108.858 Y80.45 E1.51909
G1 X111.381 Y80.45 E1.603
G1 X113.905 Y80.379 E1.68698
G1 X116.441 Y80.237 E1.77146
G1 X118.922 Y80.027 E1.85428
G1 X121.426 Y79.743 E1.9381
G1 X123.945 Y79.385 E2.02272
G1 X126.41 Y78.963 E2.1059
G1 X128.877 Y78.47 E2.18957
G1 X131.291 Y77.915 E2.27196
G1 X133.768 Y77.272 E2.35707
G1 X136.173 Y76.573 E2.44037
G1 X138.611 Y75.79 E2.52554
G1 X138.826 Y75.716 E2.5331
G1 X139.03 Y75.648 E2.54026
G1 X139.362 Y75.541 E2.55186
G1 X140.266 Y75.292 E2.58305
G1 X141.188 Y75.12 E2.61424
G1 X142.367 Y75.017 E2.6536
G1 X142.695 Y75.006 E2.66452
G1 X143.064 Y75 E2.67679
G1 X147.786 Y75 E2.83385
G1 X147.928 Y75.001 E2.83857
G1 X148.626 Y75.01 E2.86179
G1 X149.562 Y75.062 E2.89297
G1 X150.491 Y75.194 E2.92418
G1 X151.405 Y75.404 E2.95537
G1 X152.298 Y75.691 E2.98657
G1 X153.163 Y76.054 E3.01777
G1 X153.994 Y76.488 E3.04895
G1 X154.785 Y76.992 E3.08014
G1 X155.53 Y77.562 E3.11134
G1 X156.224 Y78.193 E3.14254
G1 X156.861 Y78.88 E3.1737
G1 X157.438 Y79.62 E3.20491
G1 X157.95 Y80.406 E3.23611
G1 X158.393 Y81.233 E3.26732
G1 X158.764 Y82.094 E3.2985
G1 X159.06 Y82.984 E3.32969
G1 X159.279 Y83.896 E3.36089
G1 X159.42 Y84.823 E3.39208
G1 X159.479 Y85.693 E3.42108
G1 X159.488 Y86.006 E3.43149
G1 X159.493 Y86.322 E3.442
G1 X159.494 Y133.263 E5.00327
G1 X159.493 Y133.415 E5.00832
G1 X159.483 Y134.141 E5.03247
G1 X159.43 Y135.077 E5.06365
G1 X159.298 Y136.005 E5.09483
G1 X159.087 Y136.919 E5.12603
G1 X158.798 Y137.812 E5.15725
G1 X158.435 Y138.676 E5.18842
G1 X158 Y139.507 E5.21961
G1 X157.495 Y140.298 E5.25083
G1 X156.925 Y141.042 E5.282
G1 X156.294 Y141.736 E5.3132
G1 X155.605 Y142.373 E5.34441
G1 X154.865 Y142.949 E5.3756
G1 X154.079 Y143.46 E5.40678
G1 X153.252 Y143.902 E5.43797
G1 X152.39 Y144.272 E5.46917
G1 X151.5 Y144.568 E5.50036
G1 X150.588 Y144.786 E5.53155
G1 X149.66 Y144.926 E5.56277
G1 X148.834 Y144.983 E5.5903
G1 X148.52 Y144.993 E5.60075
G1 X148.172 Y144.999 E5.61233
G1 X143.443 Y145 E5.76962
G1 X143.284 Y144.999 E5.7749
G1 X142.584 Y144.989 E5.79819
G1 X141.648 Y144.936 E5.82937
G1 X140.719 Y144.803 E5.86058
G1 X139.805 Y144.591 E5.89179
G1 X139.246 Y144.42 E5.91123
G1 X138.743 Y144.252 E5.92887
G1 X136.23 Y143.443 E6.01668
G1 X133.834 Y142.745 E6.09968
G1 X131.375 Y142.105 E6.18419
G1 X128.905 Y141.533 E6.26852
G1 X126.471 Y141.046 E6.35108
G1 X123.996 Y140.621 E6.4346
G1 X121.479 Y140.263 E6.51916
G1 X119.009 Y139.981 E6.60185
G1 X116.476 Y139.765 E6.6864
G1 X113.959 Y139.621 E6.77026
G1 X111.474 Y139.55 E6.85294
G1 X108.951 Y139.55 E6.93686
G1 X106.427 Y139.621 E7.02084
G1 X103.891 Y139.763 E7.10532
G1 X101.41 Y139.973 E7.18813
G1 X98.906 Y140.257 E7.27195
G1 X96.387 Y140.615 E7.35657
G1 X93.922 Y141.037 E7.43975
G1 X91.455 Y141.53 E7.52343
G1 X89.041 Y142.085 E7.60581
G1 X86.564 Y142.728 E7.69093
G1 X84.159 Y143.427 E7.77423
G1 X81.721 Y144.21 E7.8594
G1 X81.506 Y144.284 E7.86696
G1 X81.293 Y144.355 E7.87443
G1 X80.96 Y144.462 E7.88606
G1 X80.056 Y144.71 E7.91724
G1 X79.134 Y144.881 E7.94843
G1 X77.965 Y144.983 E7.98745
G1 X77.638 Y144.994 E7.99834
G1 X77.268 Y145 E8.01064
G1 X72.214 Y145 E8.17874
G1 X72.072 Y144.999 E8.18346
G1 X71.374 Y144.99 E8.20668
G1 X70.438 Y144.938 E8.23786
G1 X69.509 Y144.806 E8.26907
G1 X68.595 Y144.596 E8.30026
G1 X67.702 Y144.309 E8.33146
G1 X66.837 Y143.946 E8.36266
G1 X66.006 Y143.512 E8.39384
G1 X65.215 Y143.008 E8.42504
G1 X64.47 Y142.438 E8.45624
G1 X63.776 Y141.807 E8.48743
G1 X63.139 Y141.12 E8.51859
G1 X62.562 Y140.38 E8.54981
G1 X62.05 Y139.594 E8.581
G1 X61.607 Y138.767 E8.61221
G1 X61.236 Y137.906 E8.64339
G1 X60.94 Y137.016 E8.67459
G1 X60.721 Y136.104 E8.70578
G1 X60.58 Y135.177 E8.73697
G1 X60.52 Y134.288 E8.7666
G1 X60.511 Y133.955 E8.77768
G1 X60.507 Y133.659 E8.78753
G1 X60.506 Y125.85 E9.04726
G1 X60.506 Y125.849 E9.04729
G1 X60.507 Y86.674 E10.35026
G1 X60.508 Y86.508 E10.35578
G1 X60.518 Y85.844 E10.37787
G1 X60.572 Y84.908 E10.40905
G1 X60.706 Y83.98 E10.44023
G1 X60.918 Y83.066 E10.47144
G1 X61.208 Y82.174 E10.50264
G1 X61.572 Y81.31 E10.53382
G1 X62.008 Y80.48 E10.565
G1 X62.514 Y79.69 E10.59621
G1 X63.085 Y78.946 E10.6274
G1 X63.717 Y78.253 E10.6586
G1 X64.406 Y77.617 E10.68978
G0 F6000 X64.795 Y77.814
G1 F1200 X65.531 Y77.262 E10.72038
G1 X66.313 Y76.775 E10.75102
G1 X67.134 Y76.359 E10.78163
G1 X67.988 Y76.015 E10.81226
G1 X68.869 Y75.746 E10.84289
G1 X69.769 Y75.555 E10.87349
G1 X70.683 Y75.443 E10.90412
G1 X71.189 Y75.415 E10.92098
G1 X71.512 Y75.405 E10.93173
G1 X71.84 Y75.4 E10.94264
G1 X76.891 Y75.4 E11.11063
G1 X77.043 Y75.401 E11.11569
G1 X77.741 Y75.411 E11.13891
G1 X78.66 Y75.464 E11.16952
G1 X79.571 Y75.597 E11.20014
G1 X80.467 Y75.808 E11.23076
G1 X80.946 Y75.956 E11.24744
G1 X81.457 Y76.127 E11.26536
G1 X83.963 Y76.933 E11.35291
G1 X86.4 Y77.642 E11.43733
G1 X88.872 Y78.286 E11.52229
G1 X91.324 Y78.854 E11.60601
G1 X93.793 Y79.348 E11.68975
G1 X96.278 Y79.774 E11.77361
G1 X98.788 Y80.132 E11.85794
G1 X101.315 Y80.42 E11.94253
G1 X103.8 Y80.632 E12.02548
G1 X106.338 Y80.777 E12.11003
G1 X108.881 Y80.85 E12.19465
G1 X111.392 Y80.85 E12.27816
G1 X113.94 Y80.779 E12.36294
G1 X116.458 Y80.637 E12.44683
G1 X118.968 Y80.425 E12.53061
G1 X121.456 Y80.143 E12.61389
G1 X123.997 Y79.782 E12.69925
G1 X126.484 Y79.356 E12.78317
G1 X128.939 Y78.865 E12.86644
G1 X131.417 Y78.295 E12.95101
G1 X133.875 Y77.657 E13.03548
G1 X136.292 Y76.955 E13.11919
G1 X138.723 Y76.174 E13.20411
G1 X138.956 Y76.094 E13.21231
G1 X139.152 Y76.029 E13.21918
G1 X139.484 Y75.922 E13.23078
G1 X140.372 Y75.678 E13.26141
G1 X141.278 Y75.512 E13.29204
G1 X142.381 Y75.417 E13.32886
G1 X142.709 Y75.406 E13.33978
G1 X143.064 Y75.4 E13.35159
G1 X147.786 Y75.4 E13.50864
G1 X147.923 Y75.401 E13.5132
G1 X148.621 Y75.41 E13.53642
G1 X149.54 Y75.462 E13.56703
G1 X150.451 Y75.593 E13.59764
G1 X151.347 Y75.803 E13.62825
G1 X152.222 Y76.09 E13.65888
G1 X153.069 Y76.452 E13.68952
G1 X153.881 Y76.886 E13.72014
G1 X154.652 Y77.388 E13.75074
G1 X155.377 Y77.956 E13.78137
G1 X156.05 Y78.585 E13.81201
G1 X156.665 Y79.269 E13.84261
G1 X157.219 Y80.004 E13.87322
G1 X157.707 Y80.785 E13.90385
G1 X158.126 Y81.605 E13.93448
G1 X158.472 Y82.458 E13.96509
G1 X158.742 Y83.338 E13.99571
G1 X158.935 Y84.239 E14.02635
G1 X159.049 Y85.152 E14.05696
G1 X159.08 Y85.704 E14.07535
G1 X159.089 Y86.017 E14.08576
G1 X159.093 Y86.322 E14.09591
G1 X159.094 Y133.263 E15.65717
G1 X159.093 Y133.409 E15.66203
G1 X159.083 Y134.135 E15.68617
G1 X159.03 Y135.054 E15.71679
G1 X158.898 Y135.965 E15.74741
G1 X158.687 Y136.861 E15.77802
G1 X158.4 Y137.736 E15.80865
G1 X158.037 Y138.582 E15.83927
G1 X157.603 Y139.394 E15.86989
G1 X157.099 Y140.165 E15.90053
G1 X156.531 Y140.889 E15.93114
G1 X155.902 Y141.561 E15.96175
G1 X155.217 Y142.176 E15.99237
G1 X154.481 Y142.73 E16.02301
G1 X153.7 Y143.217 E16.05362
G1 X152.879 Y143.635 E16.08426
G1 X152.026 Y143.98 E16.11487
G1 X151.146 Y144.249 E16.14547
G1 X150.245 Y144.442 E16.17612
G1 X149.332 Y144.555 E16.20672
G1 X148.821 Y144.584 E16.22374
G1 X148.507 Y144.594 E16.23419
G1 X148.172 Y144.599 E16.24533
G1 X143.443 Y144.6 E16.40262
G1 X143.29 Y144.599 E16.40771
G1 X142.59 Y144.589 E16.43099
G1 X141.67 Y144.536 E16.46164
G1 X140.759 Y144.403 E16.49227
G1 X139.863 Y144.192 E16.52288
G1 X139.374 Y144.041 E16.5399
G1 X138.842 Y143.863 E16.55856
G1 X136.369 Y143.067 E16.64497
G1 X133.932 Y142.358 E16.72939
G1 X131.46 Y141.714 E16.81435
G1 X129.008 Y141.146 E16.89806
G1 X126.539 Y140.652 E16.98181
G1 X124.054 Y140.226 E17.06567
G1 X121.544 Y139.868 E17.14999
G1 X119.017 Y139.58 E17.23459
G1 X116.532 Y139.368 E17.31754
G1 X113.994 Y139.223 E17.40209
G1 X111.451 Y139.15 E17.48671
G1 X108.94 Y139.15 E17.57022
G1 X106.392 Y139.221 E17.655
G1 X103.874 Y139.363 E17.73888
G1 X101.364 Y139.575 E17.82266
G1 X98.876 Y139.857 E17.90595
G1 X96.335 Y140.218 E17.99131
G1 X93.848 Y140.644 E18.07523
G1 X91.393 Y141.135 E18.1585
G1 X88.915 Y141.705 E18.24307
G1 X86.457 Y142.343 E18.32753
G1 X84.04 Y143.045 E18.41125
G1 X81.609 Y143.826 E18.49617
G1 X81.376 Y143.906 E18.50437
G1 X81.171 Y143.974 E18.51155
G1 X80.838 Y144.081 E18.52318
G1 X79.95 Y144.324 E18.5538
G1 X79.044 Y144.489 E18.58443
G1 X77.951 Y144.583 E18.62092
G1 X77.624 Y144.594 E18.6318
G1 X77.268 Y144.6 E18.64364
G1 X72.214 Y144.6 E18.81174
G1 X72.077 Y144.599 E18.8163
G1 X71.379 Y144.59 E18.83952
G1 X70.46 Y144.538 E18.87013
G1 X69.549 Y144.407 E18.90074
G1 X68.653 Y144.197 E18.93135
G1 X67.778 Y143.91 E18.96198
G1 X66.931 Y143.548 E18.99262
G1 X66.119 Y143.114 E19.02324
G1 X65.348 Y142.612 E19.05384
G1 X64.623 Y142.044 E19.08447
G1 X63.95 Y141.415 E19.11511
G1 X63.335 Y140.731 E19.1457
G1 X62.781 Y139.996 E19.17632
G1 X62.293 Y139.215 E19.20695
G1 X61.874 Y138.395 E19.23757
G1 X61.528 Y137.542 E19.26819
G1 X61.258 Y136.662 E19.29881
G1 X61.065 Y135.761 E19.32945
G1 X60.951 Y134.848 E19.36005
G1 X60.92 Y134.277 E19.37907
G1 X60.911 Y133.944 E19.39015
G1 X60.907 Y133.659 E19.39963
G1 X60.906 Y125.85 E19.65936
G1 X60.906 Y125.849 E19.6594
G1 X60.907 Y86.674 E20.96236
G1 X60.908 Y86.514 E20.96768
G1 X60.918 Y85.85 E20.98977
G1 X60.972 Y84.931 E21.02039
G1 X61.105 Y84.02 E21.05101
G1 X61.317 Y83.124 E21.08163
G1 X61.606 Y82.25 E21.11225
G1 X61.97 Y81.404 E21.14288
G1 X62.405 Y80.593 E21.17349
G1 X62.91 Y79.823 E21.20412
G1 X63.479 Y79.1 E21.23472
G1 X64.109 Y78.428 E21.26536
G1 X64.795 Y77.814 E21.29598
G0 F6000 X65.183 Y78.015
G1 F1200 X65.915 Y77.486 E21.32602
G1 X66.69 Y77.024 E21.35603
G1 X67.504 Y76.633 E21.38606
G1 X68.349 Y76.314 E21.4161
G1 X69.219 Y76.072 E21.44614
G1 X70.107 Y75.908 E21.47617
G1 X71.201 Y75.815 E21.51269
G1 X71.524 Y75.805 E21.52344
G1 X71.84 Y75.8 E21.53395
G1 X76.891 Y75.8 E21.70195
G1 X77.037 Y75.801 E21.7068
G1 X77.735 Y75.811 E21.73002
G1 X78.637 Y75.864 E21.76007
G1 X79.53 Y75.996 E21.7901
G1 X80.819 Y76.335 E21.83443
G1 X81.358 Y76.515 E21.85333
G1 X83.844 Y77.315 E21.94019
G1 X86.292 Y78.028 E22.02499
G1 X88.752 Y78.669 E22.10954
G1 X91.26 Y79.249 E22.19516
G1 X93.712 Y79.739 E22.27833
G1 X96.231 Y80.172 E22.36334
G1 X98.718 Y80.526 E22.44689
G1 X101.275 Y80.817 E22.53249
G1 X103.811 Y81.034 E22.61714
G1 X106.303 Y81.176 E22.70016
G1 X108.869 Y81.25 E22.78554
G1 X111.403 Y81.25 E22.86982
G1 X113.937 Y81.179 E22.95414
G1 X116.48 Y81.036 E23.03885
G1 X119.01 Y80.822 E23.1233
G1 X121.526 Y80.537 E23.20752
G1 X124.05 Y80.178 E23.29231
G1 X126.559 Y79.749 E23.37697
G1 X129.036 Y79.253 E23.46099
G1 X131.494 Y78.688 E23.54488
G1 X133.991 Y78.04 E23.63068
G1 X136.421 Y77.334 E23.71484
G1 X138.863 Y76.55 E23.80015
G1 X139.086 Y76.473 E23.808
G1 X139.275 Y76.41 E23.81462
G1 X139.607 Y76.303 E23.82622
G1 X140.478 Y76.064 E23.85626
G1 X141.367 Y75.903 E23.88631
G1 X142.394 Y75.817 E23.92059
G1 X142.722 Y75.806 E23.93151
G1 X143.064 Y75.8 E23.94288
G1 X147.786 Y75.8 E24.09994
G1 X147.918 Y75.801 E24.10433
G1 X148.616 Y75.81 E24.12754
G1 X149.517 Y75.861 E24.15756
G1 X150.411 Y75.993 E24.18762
G1 X151.289 Y76.202 E24.21764
G1 X152.146 Y76.489 E24.2477
G1 X152.973 Y76.85 E24.27771
G1 X153.766 Y77.283 E24.30776
G1 X154.517 Y77.784 E24.33779
G1 X155.221 Y78.35 E24.36783
G1 X155.872 Y78.976 E24.39787
G1 X156.465 Y79.657 E24.4279
G1 X156.995 Y80.388 E24.45793
G1 X157.459 Y81.163 E24.48798
G1 X157.853 Y81.976 E24.51803
G1 X158.173 Y82.82 E24.54805
G1 X158.417 Y83.69 E24.5781
G1 X158.583 Y84.578 E24.60815
G1 X158.68 Y85.716 E24.64613
G1 X158.689 Y86.029 E24.65655
G1 X158.693 Y86.322 E24.66629
G1 X158.694 Y133.263 E26.22756
G1 X158.693 Y133.403 E26.23221
G1 X158.683 Y134.129 E26.25636
G1 X158.631 Y135.031 E26.28641
G1 X158.499 Y135.924 E26.31644
G1 X158.288 Y136.803 E26.3465
G1 X158.001 Y137.659 E26.37653
G1 X157.639 Y138.486 E26.40656
G1 X157.205 Y139.278 E26.4366
G1 X156.703 Y140.029 E26.46664
G1 X156.137 Y140.733 E26.49669
G1 X155.51 Y141.383 E26.52672
G1 X154.829 Y141.976 E26.55676
G1 X154.097 Y142.505 E26.5868
G1 X153.322 Y142.969 E26.61684
G1 X152.509 Y143.361 E26.64686
G1 X151.664 Y143.681 E26.67691
G1 X150.794 Y143.924 E26.70696
G1 X149.907 Y144.089 E26.73696
G1 X148.809 Y144.184 E26.77362
G1 X148.495 Y144.194 E26.78407
G1 X148.172 Y144.199 E26.79481
G1 X143.443 Y144.2 E26.9521
G1 X143.295 Y144.199 E26.95702
G1 X142.595 Y144.189 E26.98031
G1 X141.694 Y144.136 E27.01033
G1 X140.8 Y144.004 E27.04038
G1 X139.501 Y143.662 E27.08506
G1 X138.939 Y143.474 E27.10477
G1 X136.488 Y142.685 E27.19041
G1 X134.04 Y141.972 E27.27522
G1 X131.58 Y141.331 E27.35977
G1 X129.072 Y140.751 E27.44539
G1 X126.62 Y140.261 E27.52855
G1 X124.101 Y139.828 E27.61356
G1 X121.614 Y139.474 E27.69711
G1 X119.057 Y139.183 E27.78271
G1 X116.521 Y138.966 E27.86737
G1 X114.029 Y138.824 E27.95038
G1 X111.463 Y138.75 E28.03576
G1 X108.929 Y138.75 E28.12005
G1 X106.395 Y138.821 E28.20436
G1 X103.852 Y138.964 E28.28907
G1 X101.322 Y139.178 E28.37352
G1 X98.806 Y139.463 E28.45774
G1 X96.282 Y139.822 E28.54253
G1 X93.773 Y140.251 E28.6272
G1 X91.296 Y140.747 E28.71122
G1 X88.838 Y141.312 E28.7951
G1 X86.341 Y141.96 E28.8809
G1 X83.911 Y142.666 E28.96507
G1 X81.469 Y143.45 E29.05037
G1 X81.246 Y143.527 E29.05822
G1 X81.048 Y143.593 E29.06516
G1 X80.715 Y143.7 E29.07679
G1 X79.844 Y143.938 E29.10682
G1 X78.955 Y144.098 E29.13687
G1 X77.938 Y144.183 E29.17081
G1 X77.611 Y144.194 E29.18169
G1 X77.268 Y144.2 E29.1931
G1 X72.214 Y144.2 E29.3612
G1 X72.082 Y144.199 E29.36559
G1 X71.384 Y144.19 E29.38881
G1 X70.483 Y144.139 E29.41882
G1 X69.589 Y144.007 E29.44888
G1 X68.711 Y143.798 E29.4789
G1 X67.854 Y143.511 E29.50896
G1 X67.027 Y143.15 E29.53897
G1 X66.234 Y142.717 E29.56902
G1 X65.483 Y142.216 E29.59905
G1 X64.779 Y141.65 E29.62909
G1 X64.128 Y141.024 E29.65913
G1 X63.535 Y140.343 E29.68917
G1 X63.005 Y139.612 E29.7192
G1 X62.541 Y138.837 E29.74924
G1 X62.147 Y138.024 E29.77929
G1 X61.827 Y137.18 E29.80931
G1 X61.583 Y136.31 E29.83936
G1 X61.417 Y135.422 E29.86941
G1 X61.32 Y134.267 E29.90796
G1 X61.311 Y133.934 E29.91904
G1 X61.307 Y133.659 E29.92819
G1 X61.306 Y125.85 E30.18792
G1 X61.306 Y125.849 E30.18795
G1 X61.307 Y86.674 E31.49092
G1 X61.308 Y86.52 E31.49604
G1 X61.318 Y85.856 E31.51812
G1 X61.372 Y84.955 E31.54815
G1 X61.505 Y84.062 E31.57817
G1 X61.716 Y83.184 E31.60821
G1 X62.005 Y82.328 E31.63826
G1 X62.368 Y81.501 E31.6683
G1 X62.802 Y80.709 E31.69834
G1 X63.306 Y79.959 E31.72839
G1 X63.873 Y79.257 E31.7584
G1 X64.5 Y78.607 E31.78844
G1 X65.183 Y78.015 E31.8185
G1 F2700 E26.8185
